; generated by Slic3r 1.2.9 on 2017-08-12 at 22:47:54

; external perimeters extrusion width = 0.40mm
; perimeters extrusion width = 0.43mm
; infill extrusion width = 0.43mm
; solid infill extrusion width = 0.43mm
; top infill extrusion width = 0.43mm

M107
M115 U3.0.12 ; tell printer latest fw version
M83  ; extruder relative mode
M104 S215 ; set extruder temp
M140 S55 ; set bed temp
M190 S55 ; wait for bed temp
M109 S215 ; wait for extruder temp
G28 W ; home all without mesh bed level
G80 ; mesh bed leveling
G1 Y-3.0 F1000.0 ; go outside pritn area
G1 X60.0 E9.0  F1000.0 ; intro line
G1 X100.0 E12.5  F1000.0 ; intro line
G21 ; set units to millimeters
G90 ; use absolute coordinates
M82 ; use absolute distances for extrusion
G92 E0
G1 Z0.400 F7200.000
G1 E-0.80000 F2400.00000
G92 E0
G1 Z0.900 F7200.000
G1 X97.358 Y84.049 F7200.000
G1 Z0.400 F7200.000
G1 E0.80000 F2400.00000
G1 X101.275 Y79.699 E1.49520 F1800.000
G1 X102.318 Y78.760 E1.66192
G1 X107.054 Y75.319 E2.35713
G1 X108.269 Y74.618 E2.52381
G1 X113.617 Y72.237 E3.21902
G1 X114.952 Y71.803 E3.38573
G1 X120.677 Y70.586 E4.08093
G1 X122.073 Y70.439 E4.24763
G1 X127.927 Y70.439 E4.94284
G1 X129.323 Y70.586 E5.10953
G1 X135.048 Y71.803 E5.80474 F1800.000
G1 X136.383 Y72.237 E5.97145
G1 X141.731 Y74.618 E6.66666
G1 X142.946 Y75.319 E6.83335
G1 X147.682 Y78.760 E7.52855
G1 X148.725 Y79.699 E7.69527
G1 X152.642 Y84.049 E8.39047
G1 X153.467 Y85.185 E8.55717
G1 X156.394 Y90.254 E9.25238
G1 X156.965 Y91.537 E9.41909
G1 X158.774 Y97.104 E10.11429
G1 X159.065 Y98.476 E10.28095
G1 X159.660 Y104.137 E10.95699
G1 X159.677 Y104.298 E10.97619
G1 X159.677 Y105.702 E11.14289
G1 X159.065 Y111.524 E11.83812
G1 X158.774 Y112.896 E12.00479
G1 X156.965 Y118.463 E12.70000
G1 X156.394 Y119.746 E12.86670
G1 X153.467 Y124.815 E13.56191
G1 X152.642 Y125.951 E13.72861
G1 X148.781 Y130.239 E14.41388
G1 X147.682 Y131.240 E14.59047
G1 X142.946 Y134.681 E15.28568
G1 X141.731 Y135.382 E15.45237
G1 X136.383 Y137.763 E16.14758
G1 X135.048 Y138.197 E16.31429
G1 X129.323 Y139.414 E17.00949
G1 X127.927 Y139.561 E17.17619
G1 X122.073 Y139.561 E17.87139
G1 X120.677 Y139.414 E18.03808
G1 X114.952 Y138.197 E18.73330
G1 X113.540 Y137.729 E18.90989
G1 X108.269 Y135.382 E19.59516
G1 X107.054 Y134.681 E19.76185
G1 X102.318 Y131.240 E20.45705
G1 X101.275 Y130.301 E20.62377
G1 X97.358 Y125.951 E21.31898
G1 X96.533 Y124.815 E21.48568
G1 X93.648 Y119.818 E22.17095
G1 X93.035 Y118.463 E22.34754
G1 X91.226 Y112.896 E23.04274
G1 X90.935 Y111.524 E23.20940
G1 X90.323 Y105.702 E23.90465
G1 X90.323 Y104.298 E24.07134
G1 X90.340 Y104.138 E24.09053
G1 X90.935 Y98.476 E24.76658
G1 X91.226 Y97.104 E24.93325
G1 X93.035 Y91.536 E25.62848
G1 X93.606 Y90.254 E25.79515
G1 X96.533 Y85.185 E26.49037
G1 X97.323 Y84.098 E26.64993
G1 F5760
G1 X98.606 Y82.670 E25.88993
G1 E25.84993 F2400.00000
G92 E0
G1 Z0.900 F7200.000
G1 X146.746 Y120.800 F7200.000
G1 Z0.400 F7200.000
G1 E0.80000 F2400.00000
G1 X142.986 Y124.976 E1.46739 F1800.000
G1 X138.440 Y128.278 E2.13478
G1 X133.306 Y130.564 E2.80216
G1 X127.810 Y131.732 E3.46955
G1 X122.190 Y131.732 E4.13694
G1 X116.694 Y130.564 E4.80433
G1 X111.560 Y128.278 E5.47172
G1 X107.014 Y124.976 E6.13910
G1 X103.254 Y120.800 E6.80649
G1 X100.444 Y115.933 E7.47388
G1 X98.708 Y110.589 E8.14127
G1 X98.120 Y105.000 E8.80866
G1 X98.708 Y99.411 E9.47604
G1 X100.444 Y94.067 E10.14343
G1 X103.254 Y89.200 E10.81082
G1 X107.014 Y85.024 E11.47821
G1 X111.560 Y81.722 E12.14559
G1 X116.694 Y79.436 E12.81298
G1 X122.190 Y78.268 E13.48037
G1 X127.810 Y78.268 E14.14776
G1 X133.306 Y79.436 E14.81515
G1 X138.440 Y81.722 E15.48253 F1800.000
G1 X142.986 Y85.024 E16.14992
G1 X146.746 Y89.200 E16.81731
G1 X149.556 Y94.067 E17.48470
G1 X151.292 Y99.411 E18.15208
G1 X151.880 Y105.000 E18.81947
G1 X151.292 Y110.589 E19.48686
G1 X149.556 Y115.933 E20.15424
G1 X146.776 Y120.748 E20.81451
G1 X147.365 Y121.157 F7200.000
G1 X147.327 Y121.222 E20.82342 F1800.000
G1 X143.467 Y125.509 E21.50864
G1 X138.799 Y128.900 E22.19386
G1 X133.528 Y131.247 E22.87908
G1 X127.885 Y132.447 E23.56429
G1 X122.115 Y132.447 E24.24951
G1 X116.472 Y131.247 E24.93473
G1 X111.201 Y128.900 E25.61995
G1 X106.533 Y125.509 E26.30516
G1 X102.673 Y121.222 E26.99038
G1 X99.788 Y116.225 E27.67560
G1 X98.005 Y110.738 E28.36081
G1 X97.402 Y105.000 E29.04603
G1 X98.005 Y99.262 E29.73125
G1 X99.788 Y93.775 E30.41646
G1 X102.673 Y88.778 E31.10168
G1 X106.533 Y84.491 E31.78690
G1 X111.201 Y81.100 E32.47212
G1 X116.472 Y78.753 E33.15734
G1 X122.115 Y77.553 E33.84255
G1 X127.925 Y77.562 E34.53260
G1 X133.528 Y78.753 E35.21288 F1800.000
G1 X138.799 Y81.100 E35.89810
G1 X143.467 Y84.491 E36.58331
G1 X147.327 Y88.778 E37.26853
G1 X150.212 Y93.775 E37.95375
G1 X151.995 Y99.262 E38.63896
G1 X152.598 Y105.000 E39.32418
G1 X151.995 Y110.738 E40.00940
G1 X150.212 Y116.225 E40.69461
G1 X147.395 Y121.105 E41.36379
G1 X147.290 Y121.157 F7200.000
G1 X148.680 Y93.613 F7200.000
G1 X136.470 Y81.403 E43.42777 F1800.000
G1 X134.637 Y80.587 F7200.000
G1 X149.485 Y95.435 E45.93756 F1800.000
G1 X149.975 Y96.941 E46.12678
G1 X132.855 Y79.821 E49.02062
G1 X131.564 Y79.546 E49.17834
G1 X150.464 Y98.446 E52.37305
G1 X150.888 Y99.886 E52.55249
G1 X130.273 Y79.272 E56.03702
G1 X128.982 Y78.998 E56.19474
G1 X151.007 Y101.022 E59.91763
G1 X151.126 Y102.158 E60.05414
G1 X127.691 Y78.723 E64.01540
G1 X126.655 Y78.703 E64.13932
G1 X151.246 Y103.294 E68.29598
G1 X151.365 Y104.430 E68.43248
G1 X125.638 Y78.703 E72.78113
G1 X124.622 Y78.703 E72.90262
G1 X151.406 Y105.487 E77.42995
G1 X151.309 Y106.407 E77.54049
G1 X123.606 Y78.703 E82.22328
G1 X122.589 Y78.703 E82.34477
G1 X151.212 Y107.326 E87.18303
G1 X151.116 Y108.246 E87.29357
G1 X121.665 Y78.796 E92.27166
G1 X120.827 Y78.974 E92.37409
G1 X151.019 Y109.166 E97.47753
G1 X150.922 Y110.086 E97.58807
G1 X119.989 Y79.152 E102.81687
G1 X119.150 Y79.330 E102.91930
G1 X150.761 Y110.941 E108.26257
G1 X150.512 Y111.708 E108.35898
G1 X118.312 Y79.508 E113.80181
G1 X117.474 Y79.686 E113.90424
G1 X150.263 Y112.475 E119.44663
G1 X150.014 Y113.242 E119.54304
G1 X116.650 Y79.879 E125.18257
G1 X115.947 Y80.192 E125.27459
G1 X149.764 Y114.010 E130.99086
G1 X149.515 Y114.777 E131.08727
G1 X115.243 Y80.505 E136.88030
G1 X114.540 Y80.818 E136.97231
G1 X149.266 Y115.544 E142.84208
G1 X148.942 Y116.236 E142.93346
G1 X113.837 Y81.131 E148.86735
G1 X113.134 Y81.445 E148.95936
G1 X148.570 Y116.881 E154.94925
G1 X148.198 Y117.525 E155.03818
G1 X112.430 Y81.758 E161.08406
G1 X111.727 Y82.071 E161.17608
G1 X147.826 Y118.170 E167.27795
G1 X147.454 Y118.814 E167.36688
G1 X111.134 Y82.495 E173.50601
G1 X110.546 Y82.923 E173.59299
G1 X147.082 Y119.458 E179.76875
G1 X146.710 Y120.103 E179.85769
G1 X109.957 Y83.350 E186.07007
G1 X109.368 Y83.778 E186.15705
G1 X146.313 Y120.723 E192.40194
G1 X145.832 Y121.258 E192.48797
G1 X108.780 Y84.206 E198.75097
G1 X108.191 Y84.633 E198.83795
G1 X145.350 Y121.793 E205.11907
G1 X144.868 Y122.327 E205.20509
G1 X107.602 Y85.061 E211.50432
G1 X107.061 Y85.536 E211.59040
G1 X144.387 Y122.862 E217.89970
G1 X143.905 Y123.397 E217.98573
G1 X106.576 Y86.068 E224.29556
G1 X106.095 Y86.603 E224.38158
G1 X143.424 Y123.932 E230.69141
G1 X142.939 Y124.464 E230.77741
G1 X105.613 Y87.138 E237.08671
G1 X105.132 Y87.673 E237.17273
G1 X142.398 Y124.939 E243.47196
G1 X141.809 Y125.367 E243.55894
G1 X104.650 Y88.207 E249.84005
G1 X104.168 Y88.742 E249.92608
G1 X141.220 Y125.794 E256.18908
G1 X140.632 Y126.222 E256.27606
G1 X103.687 Y89.277 E262.52096
G1 X103.290 Y89.897 E262.60892
G1 X140.043 Y126.650 E268.82130
G1 X139.454 Y127.077 E268.90828
G1 X102.918 Y90.542 E275.08404
G1 X102.546 Y91.186 E275.17297
G1 X138.866 Y127.505 E281.31211
G1 X138.273 Y127.929 E281.39918
G1 X102.174 Y91.830 E287.50105
G1 X101.802 Y92.475 E287.58999
G1 X137.570 Y128.242 E293.63586
G1 X136.866 Y128.555 E293.72788
G1 X101.430 Y93.119 E299.71776
G1 X101.058 Y93.764 E299.80670
G1 X136.163 Y128.869 E305.74058
G1 X135.460 Y129.182 E305.83260
G1 X100.734 Y94.456 E311.70237
G1 X100.485 Y95.223 E311.79878
G1 X134.757 Y129.495 E317.59180
G1 X134.053 Y129.808 E317.68382
G1 X100.236 Y95.990 E323.40009
G1 X99.986 Y96.758 E323.49650
G1 X133.350 Y130.121 E329.13603
G1 X132.526 Y130.314 E329.23716
G1 X99.737 Y97.525 E334.77955
G1 X99.488 Y98.292 E334.87596
G1 X131.688 Y130.492 E340.31879
G1 X130.850 Y130.670 E340.42122
G1 X99.239 Y99.059 E345.76449
G1 X99.078 Y99.914 E345.86852
G1 X130.011 Y130.848 E351.09731
G1 X129.173 Y131.026 E351.19974
G1 X98.981 Y100.834 E356.30319
G1 X98.884 Y101.754 E356.41372
G1 X128.335 Y131.204 E361.39181
G1 X127.411 Y131.297 E361.50280
G1 X98.788 Y102.674 E366.34106
G1 X98.691 Y103.593 E366.45159
G1 X126.394 Y131.297 E371.13438
G1 X125.378 Y131.297 E371.25587
G1 X98.594 Y104.513 E375.78319
G1 X98.635 Y105.570 E375.90963
G1 X124.362 Y131.297 E380.25828
G1 X123.345 Y131.297 E380.37976
G1 X98.754 Y106.706 E384.53642
G1 X98.874 Y107.842 E384.67292
G1 X122.308 Y131.277 E388.63418
G1 X121.018 Y131.002 E388.79190
G1 X98.993 Y108.978 E392.51479
G1 X99.112 Y110.114 E392.65129
G1 X119.727 Y130.728 E396.13581
G1 X118.436 Y130.454 E396.29354
G1 X99.536 Y111.554 E399.48824
G1 X100.025 Y113.059 E399.67746
G1 X117.145 Y130.179 E402.57128
G1 X115.363 Y129.413 F7200.000
G1 X100.515 Y114.565 E405.08107 F1800.000
G1 X101.320 Y116.387 F7200.000
G1 X113.530 Y128.597 E407.14503 F1800.000
G1 X111.381 Y127.464 F7200.000
G1 X102.708 Y118.792 E408.61096 F1800.000
G1 X107.001 Y124.101 F7200.000
G1 X107.664 Y124.764 E408.72307 F1800.000
G1 X147.292 Y91.208 F7200.000
G1 X138.619 Y82.536 E410.18902 F1800.000
G1 X142.336 Y85.236 F7200.000
G1 X142.999 Y85.900 E410.30118 F1800.000
M104 S210 ; set temperature
G1 Z0.750 F7200.000
G1 X147.242 Y121.086 F7200.000
G1 X143.371 Y125.403 E410.60413 F2400.000
G1 X138.728 Y128.777 E410.90399
G1 X133.484 Y131.111 E411.20386
G1 X127.870 Y132.305 E411.50373
G1 X122.130 Y132.305 E411.80360
G1 X116.516 Y131.111 E412.10347
G1 X111.272 Y128.777 E412.40334
G1 X106.629 Y125.403 E412.70321
G1 X102.788 Y121.138 E413.00307
G1 X99.919 Y116.167 E413.30294
G1 X98.145 Y110.708 E413.60281
G1 X97.545 Y105.000 E413.90268
G1 X98.145 Y99.292 E414.20255
G1 X99.919 Y93.833 E414.50241
G1 X102.788 Y88.862 E414.80229
G1 X106.629 Y84.597 E415.10215
G1 X111.272 Y81.223 E415.40202
G1 X116.516 Y78.889 E415.70189
G1 X122.130 Y77.695 E416.00176
G1 X127.870 Y77.695 E416.30163
G1 X128.049 Y77.734 E416.31121
G1 X133.484 Y78.889 E416.60150 F2400.000
G1 X138.728 Y81.223 E416.90137
G1 X143.371 Y84.597 E417.20123
G1 X147.212 Y88.862 E417.50110
G1 X150.081 Y93.833 E417.80097
G1 X151.855 Y99.292 E418.10084
G1 X152.455 Y105.000 E418.40071
G1 X151.855 Y110.708 E418.70058
G1 X150.081 Y116.167 E419.00044
G1 X147.272 Y121.034 E419.29404
G1 X147.538 Y121.257 F7200.000
G1 X147.490 Y121.340 E419.29858 F1200.000
G1 X143.601 Y125.659 E419.57332
G1 X138.899 Y129.075 E419.84807
G1 X133.590 Y131.438 E420.12281
G1 X127.906 Y132.647 E420.39756
G1 X122.094 Y132.647 E420.67230
G1 X116.410 Y131.438 E420.94705
G1 X111.101 Y129.075 E421.22179
G1 X106.399 Y125.659 E421.49654
G1 X102.510 Y121.340 E421.77128
G1 X99.604 Y116.307 E422.04603
G1 X97.809 Y110.780 E422.32077
G1 X97.201 Y105.000 E422.59552
G1 X97.809 Y99.220 E422.87026
G1 X99.604 Y93.693 E423.14501
G1 X102.510 Y88.660 E423.41975
G1 X106.399 Y84.341 E423.69450
G1 X111.101 Y80.925 E423.96924
G1 X116.410 Y78.562 E424.24399
G1 X122.094 Y77.353 E424.51873
G1 X127.906 Y77.353 E424.79348
G1 X128.120 Y77.399 E424.80385
G1 X133.590 Y78.562 E425.06822 F1200.000
G1 X138.899 Y80.925 E425.34297
G1 X143.601 Y84.341 E425.61771
G1 X147.490 Y88.660 E425.89246
G1 X150.396 Y93.693 E426.16721
G1 X152.191 Y99.220 E426.44195
G1 X152.799 Y105.000 E426.71669
G1 X152.191 Y110.780 E426.99144
G1 X150.396 Y116.307 E427.26618
G1 X147.568 Y121.205 E427.53355
G1 X147.442 Y121.257 F7200.000
G1 X147.214 Y120.619 F7200.000
G1 X141.142 Y126.691 E427.98222 F1200.000
G1 X142.999 Y125.342 F7200.000
G1 X143.512 Y124.829 E428.02013 F1200.000
G1 X139.285 Y128.040 F7200.000
G1 X147.908 Y119.417 E428.65728 F1200.000
G1 X148.601 Y118.216 F7200.000
G1 X137.976 Y128.842 E429.44246 F1200.000
G1 X137.060 Y129.249 F7200.000
G1 X149.295 Y117.014 E430.34654 F1200.000
G1 X136.145 Y129.657 F7200.000
G1 X149.928 Y115.873 E431.36507 F1200.000
G1 X150.173 Y115.121 E431.40640
G1 X135.230 Y130.064 E432.51064
G1 X134.314 Y130.472 F7200.000
G1 X150.417 Y114.369 E433.70058 F1200.000
G1 X150.662 Y113.617 E433.74190
G1 X133.399 Y130.879 E435.01755
G1 X132.730 Y131.040 E435.05347
G1 X150.906 Y112.864 E436.39656
G1 X151.151 Y112.112 E436.43789
G1 X132.086 Y131.177 E437.84670
G1 X131.441 Y131.314 E437.88115
G1 X151.395 Y111.360 E439.35568
G1 X151.639 Y110.608 E439.39701
G1 X130.796 Y131.451 E440.93725
G1 X130.151 Y131.588 E440.97170
G1 X151.708 Y110.031 E442.56465
G1 X151.767 Y109.464 E442.59446
G1 X129.506 Y131.725 E444.23947
G1 X128.861 Y131.862 E444.27392
G1 X151.827 Y108.897 E445.97099
G1 X151.887 Y108.329 E446.00080
G1 X128.216 Y131.999 E447.74993
G1 X127.612 Y132.096 E447.78189
G1 X151.946 Y107.762 E449.58006
G1 X152.006 Y107.194 E449.60988
G1 X127.104 Y132.096 E451.44998
G1 X126.597 Y132.096 E451.47652
G1 X152.065 Y106.627 E453.35856
G1 X152.125 Y106.059 E453.38837
G1 X126.089 Y132.096 E455.31235
G1 X125.581 Y132.096 E455.33888
G1 X152.185 Y105.492 E457.30479
G1 X152.244 Y104.924 E457.33460
G1 X125.073 Y132.096 E459.34244
G1 X124.565 Y132.096 E459.36898
G1 X152.196 Y104.465 E461.41078
G1 X152.148 Y104.005 E461.43492
G1 X124.057 Y132.096 E463.51068
G1 X123.550 Y132.096 E463.53722
G1 X152.100 Y103.546 E465.64693
G1 X152.051 Y103.086 E465.67108
G1 X123.042 Y132.096 E467.81475
G1 X122.534 Y132.096 E467.84128
G1 X152.003 Y102.627 E470.01891
G1 X151.955 Y102.167 E470.04306
G1 X122.036 Y132.085 E472.25389
G1 X121.617 Y131.996 E472.27627
G1 X151.906 Y101.707 E474.51448
G1 X151.858 Y101.248 E474.53862
G1 X121.199 Y131.907 E476.80422
G1 X120.780 Y131.818 E476.82659
G1 X151.810 Y100.788 E479.11956
G1 X151.762 Y100.329 E479.14371
G1 X120.361 Y131.729 E481.46406
G1 X119.942 Y131.640 E481.48643
G1 X151.713 Y99.869 E483.83416
G1 X151.665 Y99.410 E483.85830
G1 X119.523 Y131.551 E486.23341
G1 X119.105 Y131.462 E486.25578
G1 X151.563 Y99.004 E488.65429
G1 X151.438 Y98.621 E488.67535
G1 X118.686 Y131.373 E491.09560
G1 X118.267 Y131.284 E491.11797
G1 X151.314 Y98.238 E493.55996
G1 X151.189 Y97.854 E493.58102
G1 X117.848 Y131.195 E496.04476
G1 X117.429 Y131.106 E496.06713
G1 X151.065 Y97.471 E498.55262
G1 X150.940 Y97.088 E498.57368
G1 X117.011 Y131.017 E501.08091
G1 X116.592 Y130.928 E501.10328
G1 X150.815 Y96.704 E503.63226
G1 X150.691 Y96.321 E503.65332
G1 X116.230 Y130.782 E506.19981
G1 X115.879 Y130.626 E506.21991
G1 X150.566 Y95.938 E508.78316
G1 X150.442 Y95.555 E508.80422
G1 X115.527 Y130.469 E511.38424
G1 X115.176 Y130.313 E511.40434
G1 X150.317 Y95.171 E514.00112
G1 X150.193 Y94.788 E514.02218
G1 X114.825 Y130.156 E516.63572
G1 X114.473 Y130.000 E516.65582
G1 X150.068 Y94.405 E519.28613
G1 X149.944 Y94.021 E519.30718
G1 X114.122 Y129.843 E521.95425
G1 X113.770 Y129.687 E521.97435
G1 X149.782 Y93.676 E524.63540
G1 X149.596 Y93.354 E524.65483
G1 X113.419 Y129.530 E527.32810
G1 X113.068 Y129.374 E527.34820
G1 X149.410 Y93.032 E530.03371
G1 X149.224 Y92.710 E530.05314
G1 X112.716 Y129.218 E532.75087
G1 X112.365 Y129.061 E532.77097
G1 X149.038 Y92.388 E535.48094
G1 X148.852 Y92.066 E535.50037
G1 X112.014 Y128.905 E538.22256
G1 X111.662 Y128.748 E538.24266
G1 X148.666 Y91.744 E540.97709
G1 X148.480 Y91.422 E540.99652
G1 X111.316 Y128.587 E543.74283
G1 X111.021 Y128.373 E543.76182
G1 X148.295 Y91.100 E546.51613
G1 X148.109 Y90.778 E546.53556
G1 X110.727 Y128.160 E549.29787
G1 X110.433 Y127.946 E549.31687
G1 X147.923 Y90.456 E552.08718
G1 X147.737 Y90.134 E552.10660
G1 X110.139 Y127.732 E554.88491
G1 X109.845 Y127.519 E554.90391
G1 X147.551 Y89.812 E557.69022
G1 X147.365 Y89.490 E557.70964
G1 X109.551 Y127.305 E560.50395
G1 X109.257 Y127.091 E560.52295
G1 X147.179 Y89.169 E563.32525
G1 X146.975 Y88.865 E563.34437
G1 X108.962 Y126.878 E566.15332
G1 X108.668 Y126.664 E566.17232
G1 X146.734 Y88.598 E568.98522
