; generated by Slic3r 1.2.9 on 2017-08-13 at 00:35:18

; external perimeters extrusion width = 0.40mm
; perimeters extrusion width = 0.43mm
; infill extrusion width = 0.43mm
; solid infill extrusion width = 0.43mm
; top infill extrusion width = 0.43mm
; support material extrusion width = 0.40mm

M107
M115 U3.0.12 ; tell printer latest fw version
M83  ; extruder relative mode
M104 S215 ; set extruder temp
M140 S55 ; set bed temp
M190 S55 ; wait for bed temp
M109 S215 ; wait for extruder temp
G28 W ; home all without mesh bed level
G80 ; mesh bed leveling
G1 Y-3.0 F1000.0 ; go outside pritn area
G1 X60.0 E9.0  F1000.0 ; intro line
G1 X100.0 E12.5  F1000.0 ; intro line
G21 ; set units to millimeters
G90 ; use absolute coordinates
M82 ; use absolute distances for extrusion
G92 E0
G1 Z0.400 F7200.000
G1 E-0.80000 F2400.00000
G92 E0
G1 Z0.900 F7200.000
G1 X97.358 Y84.049 F7200.000
G1 Z0.400 F7200.000
G1 E0.80000 F2400.00000
G1 X101.275 Y79.699 E1.49521 F1800.000
G1 X102.318 Y78.760 E1.66192
G1 X107.054 Y75.319 E2.35713
G1 X108.269 Y74.618 E2.52382
G1 X113.617 Y72.237 E3.21902
G1 X114.952 Y71.803 E3.38573
G1 X120.677 Y70.586 E4.08093
G1 X122.073 Y70.439 E4.24763
G1 X127.927 Y70.439 E4.94284
G1 X129.323 Y70.586 E5.10953
G1 X135.048 Y71.803 E5.80474 F1800.000
G1 X136.383 Y72.237 E5.97145
G1 X141.731 Y74.618 E6.66666
G1 X142.946 Y75.319 E6.83334
G1 X147.682 Y78.760 E7.52855
G1 X148.725 Y79.699 E7.69527
G1 X152.642 Y84.049 E8.39047
G1 X153.467 Y85.185 E8.55717
G1 X156.394 Y90.254 E9.25239
G1 X156.965 Y91.537 E9.41909
G1 X158.774 Y97.104 E10.11429
G1 X159.065 Y98.477 E10.28098
G1 X159.665 Y104.178 E10.96189
G1 X159.677 Y105.702 E11.14281
G1 X159.065 Y111.523 E11.83803
G1 X158.774 Y112.896 E12.00472
G1 X156.965 Y118.463 E12.69992
G1 X156.394 Y119.746 E12.86663
G1 X153.467 Y124.815 E13.56183
G1 X152.642 Y125.951 E13.72853
G1 X148.725 Y130.301 E14.42374
G1 X147.682 Y131.240 E14.59045
G1 X142.946 Y134.681 E15.28566
G1 X141.731 Y135.382 E15.45235
G1 X136.383 Y137.763 E16.14755
G1 X135.048 Y138.197 E16.31426
G1 X134.914 Y138.226 E16.33061
G1 X129.323 Y139.414 E17.00947
G1 X127.927 Y139.561 E17.17617
G1 X122.073 Y139.561 E17.87137
G1 X120.677 Y139.414 E18.03807
G1 X114.952 Y138.197 E18.73327
G1 X113.617 Y137.763 E18.89998
G1 X113.491 Y137.707 E18.91634
G1 X108.269 Y135.382 E19.59519
G1 X107.054 Y134.681 E19.76188
G1 X102.318 Y131.240 E20.45708
G1 X101.275 Y130.301 E20.62380
G1 X97.358 Y125.951 E21.31901
G1 X96.533 Y124.815 E21.48571
G1 X93.694 Y119.898 E22.16001
G1 X93.606 Y119.746 E22.18092
G1 X93.035 Y118.463 E22.34762
G1 X91.226 Y112.896 E23.04282
G1 X90.935 Y111.523 E23.20951
G1 X90.323 Y105.702 E23.90473
G1 X90.335 Y104.179 E24.08563
G1 X90.935 Y98.477 E24.76657
G1 X91.226 Y97.104 E24.93325
G1 X93.035 Y91.537 E25.62845
G1 X93.606 Y90.254 E25.79516
G1 X96.533 Y85.185 E26.49037
G1 X97.323 Y84.098 E26.64994
G1 F5760
G1 X98.606 Y82.670 E25.88994
G1 E25.84994 F2400.00000
G92 E0
G1 Z0.900 F7200.000
G1 X146.746 Y120.800 F7200.000
G1 Z0.400 F7200.000
G1 E0.80000 F2400.00000
G1 X142.986 Y124.976 E1.46739 F1800.000
G1 X138.440 Y128.279 E2.13478
G1 X133.306 Y130.564 E2.80217
G1 X127.810 Y131.732 E3.46955
G1 X122.190 Y131.732 E4.13694
G1 X116.694 Y130.564 E4.80433
G1 X111.560 Y128.278 E5.47172
G1 X107.014 Y124.976 E6.13911
G1 X103.254 Y120.800 E6.80649
G1 X100.444 Y115.933 E7.47389
G1 X98.708 Y110.589 E8.14127
G1 X98.120 Y105.000 E8.80866
G1 X98.708 Y99.411 E9.47605
G1 X100.444 Y94.067 E10.14343
G1 X103.254 Y89.200 E10.81082
G1 X107.014 Y85.024 E11.47821
G1 X111.560 Y81.721 E12.14560
G1 X116.694 Y79.436 E12.81299
G1 X122.190 Y78.268 E13.48037
G1 X127.810 Y78.268 E14.14776
G1 X133.306 Y79.436 E14.81515
G1 X138.440 Y81.721 E15.48254 F1800.000
G1 X142.986 Y85.024 E16.14993
G1 X146.746 Y89.200 E16.81732
G1 X149.556 Y94.067 E17.48471
G1 X151.292 Y99.411 E18.15209
G1 X151.880 Y105.000 E18.81948
G1 X151.292 Y110.589 E19.48687
G1 X149.556 Y115.933 E20.15425
G1 X146.776 Y120.748 E20.81452
G1 X147.365 Y121.157 F7200.000
G1 X147.327 Y121.222 E20.82343 F1800.000
G1 X143.467 Y125.509 E21.50865
G1 X138.799 Y128.900 E22.19387
G1 X133.528 Y131.247 E22.87909
G1 X127.885 Y132.447 E23.56430
G1 X122.115 Y132.447 E24.24952
G1 X116.472 Y131.247 E24.93474
G1 X111.201 Y128.900 E25.61996
G1 X106.533 Y125.509 E26.30517
G1 X102.673 Y121.222 E26.99039
G1 X99.788 Y116.225 E27.67561
G1 X98.005 Y110.738 E28.36082
G1 X97.402 Y105.000 E29.04604
G1 X98.005 Y99.262 E29.73126
G1 X99.788 Y93.775 E30.41647
G1 X102.673 Y88.778 E31.10169
G1 X106.533 Y84.491 E31.78691
G1 X111.201 Y81.100 E32.47213
G1 X116.472 Y78.753 E33.15735
G1 X122.115 Y77.553 E33.84256
G1 X127.885 Y77.553 E34.52778
G1 X127.978 Y77.573 E34.53915
G1 X133.528 Y78.753 E35.21300 F1800.000
G1 X138.799 Y81.100 E35.89822
G1 X143.467 Y84.491 E36.58343
G1 X147.327 Y88.778 E37.26865
G1 X150.212 Y93.775 E37.95387
G1 X151.995 Y99.262 E38.63909
G1 X152.598 Y105.000 E39.32430
G1 X151.995 Y110.738 E40.00952
G1 X150.212 Y116.225 E40.69473
G1 X147.395 Y121.105 E41.36391
G1 X147.290 Y121.157 F7200.000
G1 X148.680 Y93.613 F7200.000
G1 X136.470 Y81.403 E43.42789 F1800.000
G1 X134.637 Y80.587 F7200.000
G1 X149.485 Y95.435 E45.93769 F1800.000
G1 X149.975 Y96.941 E46.12691
G1 X132.855 Y79.821 E49.02074
G1 X131.564 Y79.546 E49.17847
G1 X150.464 Y98.446 E52.37318
G1 X150.888 Y99.886 E52.55262
G1 X130.273 Y79.272 E56.03715
G1 X128.982 Y78.998 E56.19487
G1 X151.007 Y101.022 E59.91777
G1 X151.126 Y102.158 E60.05427
G1 X127.691 Y78.723 E64.01553
G1 X126.655 Y78.703 E64.13946
G1 X151.246 Y103.294 E68.29612
G1 X151.365 Y104.430 E68.43263
G1 X125.638 Y78.703 E72.78128
G1 X124.622 Y78.703 E72.90277
G1 X151.406 Y105.487 E77.43010
G1 X151.309 Y106.407 E77.54063
G1 X123.606 Y78.703 E82.22343
G1 X122.589 Y78.703 E82.34492
G1 X151.212 Y107.326 E87.18318
G1 X151.116 Y108.246 E87.29372
G1 X121.665 Y78.796 E92.27182
G1 X120.827 Y78.974 E92.37425
G1 X151.019 Y109.166 E97.47770
G1 X150.922 Y110.086 E97.58824
G1 X119.989 Y79.152 E102.81703
G1 X119.150 Y79.330 E102.91947
G1 X150.761 Y110.941 E108.26274
G1 X150.512 Y111.708 E108.35915
G1 X118.312 Y79.508 E113.80198
G1 X117.474 Y79.686 E113.90441
G1 X150.263 Y112.475 E119.44681
G1 X150.014 Y113.242 E119.54322
G1 X116.650 Y79.879 E125.18275
G1 X115.947 Y80.192 E125.27477
G1 X149.764 Y114.010 E130.99105
G1 X149.515 Y114.777 E131.08746
G1 X115.243 Y80.505 E136.88049
G1 X114.540 Y80.818 E136.97250
G1 X149.266 Y115.544 E142.84228
G1 X148.942 Y116.236 E142.93365
G1 X113.837 Y81.131 E148.86755
G1 X113.134 Y81.445 E148.95956
G1 X148.570 Y116.881 E154.94945
G1 X148.198 Y117.525 E155.03839
G1 X112.430 Y81.758 E161.08427
G1 X111.727 Y82.071 E161.17628
G1 X147.826 Y118.170 E167.27816
G1 X147.454 Y118.814 E167.36709
G1 X111.134 Y82.495 E173.50623
G1 X110.546 Y82.923 E173.59321
G1 X147.082 Y119.458 E179.76897
G1 X146.710 Y120.103 E179.85790
G1 X109.957 Y83.350 E186.07029
G1 X109.368 Y83.778 E186.15727
G1 X146.313 Y120.723 E192.40217
G1 X145.832 Y121.258 E192.48819
G1 X108.780 Y84.206 E198.75121
G1 X108.191 Y84.633 E198.83818
G1 X145.350 Y121.793 E205.11930
G1 X144.868 Y122.327 E205.20533
G1 X107.602 Y85.061 E211.50456
G1 X107.061 Y85.536 E211.59064
G1 X144.387 Y122.862 E217.89995
G1 X143.905 Y123.397 E217.98597
G1 X106.576 Y86.068 E224.29581
G1 X106.095 Y86.603 E224.38183
G1 X143.424 Y123.932 E230.69167
G1 X142.939 Y124.464 E230.77767
G1 X105.613 Y87.138 E237.08697
G1 X105.132 Y87.673 E237.17299
G1 X142.398 Y124.939 E243.47222
G1 X141.809 Y125.367 E243.55920
G1 X104.650 Y88.207 E249.84032
G1 X104.168 Y88.742 E249.92634
G1 X141.220 Y125.794 E256.18935
G1 X140.632 Y126.222 E256.27633
G1 X103.687 Y89.277 E262.52123
G1 X103.290 Y89.897 E262.60919
G1 X140.043 Y126.650 E268.82158
G1 X139.454 Y127.077 E268.90856
G1 X102.918 Y90.542 E275.08432
G1 X102.546 Y91.186 E275.17326
G1 X138.866 Y127.505 E281.31239
G1 X138.273 Y127.929 E281.39947
G1 X102.174 Y91.830 E287.50134
G1 X101.802 Y92.475 E287.59028
G1 X137.570 Y128.242 E293.63616
G1 X136.866 Y128.555 E293.72818
G1 X101.430 Y93.119 E299.71806
G1 X101.058 Y93.764 E299.80700
G1 X136.163 Y128.869 E305.74089
G1 X135.460 Y129.182 E305.83291
G1 X100.734 Y94.456 E311.70268
G1 X100.485 Y95.223 E311.79909
G1 X134.757 Y129.495 E317.59211
G1 X134.053 Y129.808 E317.68413
G1 X100.236 Y95.990 E323.40041
G1 X99.986 Y96.758 E323.49682
G1 X133.350 Y130.121 E329.13635
G1 X132.526 Y130.314 E329.23748
G1 X99.737 Y97.525 E334.77987
G1 X99.488 Y98.292 E334.87629
G1 X131.688 Y130.492 E340.31912
G1 X130.850 Y130.670 E340.42155
G1 X99.239 Y99.059 E345.76482
G1 X99.078 Y99.914 E345.86885
G1 X130.011 Y130.848 E351.09765
G1 X129.173 Y131.026 E351.20008
G1 X98.981 Y100.834 E356.30352
G1 X98.884 Y101.754 E356.41406
G1 X128.335 Y131.204 E361.39216
G1 X127.411 Y131.297 E361.50314
G1 X98.788 Y102.674 E366.34140
G1 X98.691 Y103.593 E366.45194
G1 X126.394 Y131.297 E371.13473
G1 X125.378 Y131.297 E371.25622
G1 X98.594 Y104.513 E375.78354
G1 X98.635 Y105.570 E375.90998
G1 X124.362 Y131.297 E380.25863
G1 X123.345 Y131.297 E380.38012
G1 X98.754 Y106.706 E384.53678
G1 X98.874 Y107.842 E384.67328
G1 X122.308 Y131.277 E388.63454
G1 X121.018 Y131.002 E388.79226
G1 X98.993 Y108.978 E392.51515
G1 X99.112 Y110.114 E392.65166
G1 X119.727 Y130.728 E396.13618
G1 X118.436 Y130.454 E396.29391
G1 X99.536 Y111.554 E399.48861
G1 X100.025 Y113.059 E399.67783
G1 X117.145 Y130.179 E402.57165
G1 X115.363 Y129.413 F7200.000
G1 X100.515 Y114.565 E405.08144 F1800.000
G1 X101.320 Y116.387 F7200.000
G1 X113.530 Y128.597 E407.14540 F1800.000
G1 X111.381 Y127.464 F7200.000
G1 X102.708 Y118.792 E408.61133 F1800.000
G1 X107.001 Y124.101 F7200.000
G1 X107.664 Y124.764 E408.72344 F1800.000
G1 X147.292 Y91.208 F7200.000
G1 X138.619 Y82.536 E410.18939 F1800.000
G1 X142.336 Y85.236 F7200.000
G1 X142.999 Y85.900 E410.30156 F1800.000
G1 Z0.400 F7200.000
M104 S210 ; set temperature
G1 Z0.550 F7200.000
G1 Z0.750 F7200.000
G1 X147.242 Y121.086 F7200.000
G1 X143.371 Y125.403 E410.60450 F2400.000
G1 X138.728 Y128.777 E410.90437
G1 X133.484 Y131.111 E411.20424
G1 X127.870 Y132.305 E411.50411
G1 X122.130 Y132.305 E411.80397
G1 X116.516 Y131.111 E412.10384
G1 X111.272 Y128.777 E412.40371
G1 X106.629 Y125.403 E412.70358
G1 X102.788 Y121.138 E413.00345
G1 X99.919 Y116.167 E413.30332
G1 X98.145 Y110.708 E413.60319
G1 X97.545 Y105.000 E413.90305
G1 X98.145 Y99.292 E414.20292
G1 X99.919 Y93.833 E414.50279
G1 X102.788 Y88.862 E414.80266
G1 X106.629 Y84.597 E415.10253
G1 X111.272 Y81.223 E415.40240
G1 X116.516 Y78.889 E415.70227
G1 X122.130 Y77.695 E416.00214
G1 X127.870 Y77.695 E416.30200
G1 X128.201 Y77.766 E416.31972
G1 X133.484 Y78.889 E416.60187 F2400.000
G1 X138.728 Y81.223 E416.90174
G1 X143.371 Y84.597 E417.20161
G1 X147.212 Y88.862 E417.50148
G1 X150.081 Y93.833 E417.80135
G1 X151.855 Y99.292 E418.10122
G1 X152.455 Y105.000 E418.40108
G1 X151.855 Y110.708 E418.70095
G1 X150.081 Y116.167 E419.00082
G1 X147.272 Y121.034 E419.29441
G1 X147.538 Y121.257 F7200.000
G1 X147.490 Y121.340 E419.29896 F1200.000
G1 X143.601 Y125.659 E419.57370
G1 X138.899 Y129.075 E419.84845
G1 X133.590 Y131.438 E420.12319
G1 X127.906 Y132.647 E420.39794
G1 X122.094 Y132.647 E420.67268
G1 X116.410 Y131.438 E420.94743
G1 X111.101 Y129.075 E421.22217
G1 X106.399 Y125.659 E421.49692
G1 X102.510 Y121.340 E421.77166
G1 X99.604 Y116.307 E422.04641
G1 X97.809 Y110.780 E422.32115
G1 X97.201 Y105.000 E422.59590
G1 X97.809 Y99.220 E422.87064
G1 X99.604 Y93.693 E423.14539
G1 X102.510 Y88.660 E423.42013
G1 X106.399 Y84.341 E423.69488
G1 X111.101 Y80.925 E423.96962
G1 X116.410 Y78.562 E424.24437
G1 X122.094 Y77.353 E424.51911
G1 X127.906 Y77.353 E424.79386
G1 X128.273 Y77.431 E424.81159
G1 X133.590 Y78.562 E425.06860 F1200.000
G1 X138.899 Y80.925 E425.34335
G1 X143.601 Y84.341 E425.61809
G1 X147.490 Y88.660 E425.89284
G1 X150.396 Y93.693 E426.16759
G1 X152.191 Y99.220 E426.44233
G1 X152.799 Y105.000 E426.71707
G1 X152.191 Y110.780 E426.99182
G1 X150.396 Y116.307 E427.26656
G1 X147.568 Y121.205 E427.53393
G1 X147.442 Y121.257 F7200.000
G1 X147.214 Y120.619 F7200.000
G1 X141.142 Y126.691 E427.98260 F1200.000
G1 X142.999 Y125.342 F7200.000
G1 X143.512 Y124.829 E428.02051 F1200.000
G1 X139.285 Y128.040 F7200.000
G1 X147.908 Y119.417 E428.65766 F1200.000
G1 X148.601 Y118.216 F7200.000
G1 X137.976 Y128.842 E429.44284 F1200.000
G1 X137.060 Y129.249 F7200.000
G1 X149.295 Y117.014 E430.34692 F1200.000
G1 X136.145 Y129.657 F7200.000
G1 X149.928 Y115.873 E431.36546 F1200.000
G1 X150.173 Y115.121 E431.40679
G1 X135.230 Y130.064 E432.51102
G1 X134.314 Y130.472 F7200.000
G1 X150.417 Y114.369 E433.70096 F1200.000
G1 X150.662 Y113.617 E433.74229
G1 X133.399 Y130.879 E435.01794
G1 X132.730 Y131.040 E435.05385
G1 X150.906 Y112.864 E436.39695
G1 X151.151 Y112.112 E436.43828
G1 X132.086 Y131.177 E437.84709
G1 X131.441 Y131.314 E437.88154
G1 X151.395 Y111.360 E439.35607
G1 X151.639 Y110.608 E439.39740
G1 X130.796 Y131.451 E440.93764
G1 X130.151 Y131.588 E440.97209
G1 X151.708 Y110.031 E442.56504
G1 X151.767 Y109.464 E442.59485
G1 X129.506 Y131.725 E444.23986
G1 X128.861 Y131.862 E444.27431
G1 X151.827 Y108.897 E445.97138
G1 X151.887 Y108.329 E446.00120
G1 X128.216 Y131.999 E447.75033
G1 X127.612 Y132.096 E447.78229
G1 X151.946 Y107.762 E449.58046
G1 X152.006 Y107.194 E449.61028
G1 X127.104 Y132.096 E451.45039
G1 X126.596 Y132.096 E451.47692
G1 X152.066 Y106.627 E453.35896
G1 X152.125 Y106.059 E453.38878
G1 X126.089 Y132.096 E455.31275
G1 X125.581 Y132.096 E455.33928
G1 X152.185 Y105.492 E457.30519
G1 X152.244 Y104.924 E457.33501
G1 X125.073 Y132.096 E459.34285
G1 X124.565 Y132.096 E459.36938
G1 X152.196 Y104.465 E461.41119
G1 X152.148 Y104.005 E461.43533
G1 X124.057 Y132.096 E463.51109
G1 X123.550 Y132.096 E463.53763
G1 X152.100 Y103.546 E465.64735
G1 X152.051 Y103.086 E465.67149
G1 X123.042 Y132.096 E467.81516
G1 X122.534 Y132.096 E467.84170
G1 X152.003 Y102.627 E470.01933
G1 X151.955 Y102.167 E470.04347
G1 X122.036 Y132.085 E472.25431
G1 X121.617 Y131.996 E472.27668
G1 X151.906 Y101.707 E474.51490
G1 X151.858 Y101.248 E474.53904
G1 X121.199 Y131.907 E476.80464
G1 X120.780 Y131.818 E476.82701
G1 X151.810 Y100.788 E479.11998
G1 X151.762 Y100.329 E479.14413
G1 X120.361 Y131.729 E481.46448
G1 X119.942 Y131.640 E481.48685
G1 X151.713 Y99.869 E483.83458
G1 X151.665 Y99.410 E483.85873
G1 X119.523 Y131.551 E486.23384
G1 X119.105 Y131.462 E486.25621
G1 X151.563 Y99.004 E488.65472
G1 X151.438 Y98.621 E488.67578
G1 X118.686 Y131.373 E491.09603
G1 X118.267 Y131.284 E491.11840
G1 X151.314 Y98.238 E493.56040
G1 X151.189 Y97.854 E493.58145
G1 X117.848 Y131.195 E496.04520
G1 X117.429 Y131.106 E496.06757
G1 X151.065 Y97.471 E498.55306
G1 X150.940 Y97.088 E498.57411
G1 X117.011 Y131.017 E501.08135
G1 X116.592 Y130.928 E501.10372
G1 X150.815 Y96.704 E503.63270
G1 X150.691 Y96.321 E503.65376
G1 X116.230 Y130.782 E506.20025
G1 X115.879 Y130.626 E506.22035
G1 X150.566 Y95.938 E508.78361
G1 X150.442 Y95.555 E508.80467
G1 X115.527 Y130.469 E511.38469
G1 X115.176 Y130.313 E511.40478
G1 X150.317 Y95.171 E514.00157
G1 X150.193 Y94.788 E514.02262
G1 X114.825 Y130.156 E516.63617
G1 X114.473 Y130.000 E516.65627
G1 X150.068 Y94.405 E519.28658
G1 X149.944 Y94.021 E519.30764
G1 X114.122 Y129.843 E521.95471
G1 X113.770 Y129.687 E521.97480
G1 X149.782 Y93.676 E524.63586
G1 X149.596 Y93.354 E524.65528
G1 X113.419 Y129.530 E527.32856
G1 X113.068 Y129.374 E527.34866
G1 X149.410 Y93.032 E530.03417
G1 X149.224 Y92.710 E530.05359
G1 X112.716 Y129.218 E532.75134
G1 X112.365 Y129.061 E532.77143
G1 X149.038 Y92.388 E535.48140
G1 X148.852 Y92.066 E535.50083
G1 X112.014 Y128.905 E538.22303
G1 X111.662 Y128.748 E538.24313
G1 X148.666 Y91.744 E540.97756
G1 X148.480 Y91.422 E540.99698
G1 X111.316 Y128.587 E543.74330
G1 X111.021 Y128.373 E543.76229
G1 X148.295 Y91.100 E546.51660
G1 X148.109 Y90.778 E546.53603
G1 X110.727 Y128.160 E549.29834
G1 X110.433 Y127.946 E549.31734
G1 X147.923 Y90.456 E552.08765
G1 X147.737 Y90.134 E552.10708
G1 X110.139 Y127.732 E554.88539
G1 X109.845 Y127.519 E554.90438
G1 X147.551 Y89.812 E557.69069
G1 X147.365 Y89.490 E557.71012
G1 X109.551 Y127.305 E560.50443
G1 X109.257 Y127.091 E560.52343
