; generated by Slic3r 1.2.9 on 2017-08-13 at 00:37:18

; external perimeters extrusion width = 0.40mm
; perimeters extrusion width = 0.68mm
; infill extrusion width = 0.87mm
; solid infill extrusion width = 0.68mm
; top infill extrusion width = 0.68mm

M107
M115 U3.0.12 ; tell printer latest fw version
M83  ; extruder relative mode
M104 S215 ; set extruder temp
M140 S55 ; set bed temp
M190 S55 ; wait for bed temp
M109 S215 ; wait for extruder temp
G28 W ; home all without mesh bed level
G80 ; mesh bed leveling
G1 Y-3.0 F1000.0 ; go outside pritn area
G1 X60.0 E9.0  F1000.0 ; intro line
G1 X100.0 E12.5  F1000.0 ; intro line
G21 ; set units to millimeters
G90 ; use absolute coordinates
M82 ; use absolute distances for extrusion
G92 E0
G1 Z0.400 F7200.000
G1 E-0.80000 F2400.00000
G92 E0
G1 Z0.900 F7200.000
G1 X109.669 Y72.095 F7200.000
G1 Z0.400 F7200.000
G1 E0.80000 F2400.00000
G1 X111.497 Y70.684 E1.07422 F1800.000
G1 X114.625 Y69.911 E1.45690
G1 X120.875 Y69.911 E2.19919
G1 X123.150 Y70.308 E2.47341
G1 X125.155 Y71.452 E2.74764 F1800.000
G1 X126.377 Y72.777 E2.96167
G1 X141.852 Y94.902 E6.16831
G1 X142.830 Y96.993 E6.44253
G1 X143.064 Y98.750 E6.65302
G1 X143.064 Y133.375 E10.76526
G1 X142.667 Y135.650 E11.03949
G1 X141.523 Y137.655 E11.31371
G1 X139.767 Y139.155 E11.58794
G1 X137.607 Y139.970 E11.86216
G1 X136.350 Y140.089 E12.01213
G1 X113.650 Y140.089 E14.70810
G1 X111.375 Y139.692 E14.98232
G1 X109.370 Y138.548 E15.25655
G1 X107.870 Y136.792 E15.53077
G1 X107.055 Y134.632 E15.80500
G1 X106.936 Y133.375 E15.95497
G1 X106.944 Y96.044 E20.38859
G1 X107.919 Y76.294 E22.73706
G1 X108.428 Y74.042 E23.01129
G1 X109.637 Y72.146 E23.27839
G1 F5760
G1 X111.147 Y70.959 E22.51839
G1 E22.47839 F2400.00000
G92 E0
G1 Z0.900 F7200.000
G1 X134.750 Y126.775 F7200.000
G1 Z0.400 F7200.000
G1 E0.80000 F2400.00000
G1 X130.575 Y126.775 E1.29584 F1800.000
G1 X130.575 Y131.425 E1.84810
G1 X125.425 Y131.425 E2.45974
G1 X125.425 Y126.775 E3.01200
G1 X121.400 Y126.775 E3.49003
G1 X121.400 Y129.825 E3.85227
G1 X119.100 Y129.825 E4.12542
G1 X119.100 Y126.325 E4.54110
G1 X121.250 Y126.325 E4.79645
G1 X121.250 Y102.975 E7.56961
G1 X134.750 Y102.975 E9.17294
G1 X134.750 Y126.715 E11.99243
G1 X134.750 Y127.175 F7200.000
G1 F5760
G1 X132.830 Y126.743 E11.23243
G1 E11.19243 F2400.00000
G92 E0
G1 Z0.900 F7200.000
G1 X124.825 Y127.375 F7200.000
G1 X123.412 Y130.425 F7200.000
G1 X124.825 Y132.200 F7200.000
G1 X131.175 Y132.200 F7200.000
G1 X133.262 Y129.462 F7200.000
G1 X135.350 Y127.375 F7200.000
G1 X135.350 Y102.375 F7200.000
G1 X119.196 Y102.375 F7200.000
G1 X118.805 Y115.220 F7200.000
G1 X119.727 Y117.425 F7200.000
G1 X119.118 Y123.625 F7200.000
G1 X119.693 Y124.768 F7200.000
G1 X119.822 Y124.297 F7200.000
G1 Z0.400 F7200.000
G1 E0.80000 F2400.00000
G1 X116.353 Y124.297 E1.21192 F1800.000
G1 X116.353 Y122.953 E1.37147
G1 X119.822 Y122.953 E1.78339
G1 X119.822 Y124.237 E1.93581
G1 X119.822 Y116.597 F7200.000
G1 X116.353 Y116.597 E2.34773 F1800.000
G1 X116.353 Y114.203 E2.63198
G1 X119.822 Y114.203 E3.04390
G1 X119.822 Y116.537 E3.32102
G1 X119.822 Y101.547 F7200.000
G1 X119.822 Y102.947 E3.48729 F1800.000
G1 X116.353 Y102.947 E3.89921
G1 X116.353 Y98.203 E4.46256
G1 X116.453 Y98.203 E4.47443
G1 X116.453 Y78.453 E6.82005
G1 X119.047 Y78.453 E7.12805
G1 X119.047 Y100.578 E9.75573
G1 X134.522 Y100.578 E11.59362
G1 X134.522 Y101.547 E11.70863
G1 X119.882 Y101.547 E13.44735
G1 X120.536 Y102.261 F7200.000
G1 X120.536 Y125.611 E16.22052 F1800.000
G1 X118.919 Y125.611 E16.41252
G1 X118.919 Y125.011 E16.48378
G1 X115.639 Y125.011 E16.87333
G1 X115.639 Y122.239 E17.20251
G1 X118.919 Y122.239 E17.59206
G1 X118.919 Y117.311 E18.17737
G1 X115.639 Y117.311 E18.56692
G1 X115.639 Y113.489 E19.02080
G1 X118.919 Y113.489 E19.41035
G1 X118.919 Y103.661 E20.57762
G1 X115.639 Y103.661 E20.96717
G1 X115.639 Y97.489 E21.70015
G1 X115.739 Y97.489 E21.71202
G1 X115.739 Y77.739 E24.05764
G1 X119.761 Y77.739 E24.53527
G1 X119.761 Y99.864 E27.16295
G1 X135.236 Y99.864 E29.00084
G1 X135.236 Y102.261 E29.28548
G1 X120.596 Y102.261 E31.02421
G1 X118.205 Y104.375 F7200.000
G1 X118.205 Y107.875 E31.43988 F1800.000
G1 X115.905 Y107.875 E31.71304
G1 X115.905 Y104.375 E32.12872
G1 X118.145 Y104.375 E32.39476
G1 X118.605 Y104.375 F7200.000
G1 X118.205 Y109.275 F7200.000
G1 X118.205 Y112.775 E32.81043 F1800.000
G1 X115.905 Y112.775 E33.08359
G1 X115.905 Y109.275 E33.49927
G1 X118.145 Y109.275 E33.76531
G1 X118.605 Y109.275 F7200.000
G1 X118.205 Y118.025 F7200.000
G1 X118.205 Y121.525 E34.18098 F1800.000
G1 X115.905 Y121.525 E34.45414
G1 X115.905 Y118.025 E34.86982
G1 X118.145 Y118.025 E35.13586
G1 X118.605 Y118.025 F7200.000
G1 X118.205 Y125.725 F7200.000
G1 X118.205 Y129.225 E35.55153 F1800.000
G1 X115.905 Y129.225 E35.82469
G1 X115.905 Y125.725 E36.24037
G1 X118.145 Y125.725 E36.50640
G1 X118.605 Y125.725 F7200.000
G1 X117.672 Y130.653 F7200.000
G1 X117.672 Y131.547 E36.61251 F1800.000
G1 X116.353 Y131.547 E36.76908
G1 X116.353 Y130.653 E36.87518
G1 X117.612 Y130.653 E37.02463
G1 X122.828 Y131.547 F7200.000
G1 X122.828 Y128.203 E37.42171 F1800.000
G1 X123.997 Y128.203 E37.56047
G1 X123.997 Y131.547 E37.95754
G1 X122.888 Y131.547 E38.08918
G1 X122.114 Y130.539 F7200.000
G1 X122.114 Y127.489 E38.45141 F1800.000
G1 X124.711 Y127.489 E38.75981
G1 X124.711 Y132.261 E39.32652
G1 X115.639 Y132.261 E40.40392
G1 X115.639 Y129.939 E40.67965
G1 X118.386 Y129.939 E41.00586
G1 X118.386 Y130.539 E41.07712
G1 X122.054 Y130.539 E41.51279
G1 X123.369 Y130.919 F7200.000
G1 X124.825 Y132.200 F7200.000
G1 X131.175 Y132.200 F7200.000
G1 X131.525 Y132.025 F7200.000
G1 X132.003 Y131.547 F7200.000
G1 X132.003 Y128.203 E41.90987 F1800.000
G1 X134.522 Y128.203 E42.20896
G1 X134.522 Y131.547 E42.60603
G1 X132.063 Y131.547 E42.89800
G1 X131.289 Y132.261 F7200.000
G1 X131.289 Y127.489 E43.46471 F1800.000
G1 X135.236 Y127.489 E43.93344
G1 X135.236 Y132.261 E44.50015
G1 X131.349 Y132.261 E44.96175
G1 X114.925 Y132.275 F7200.000
G1 X114.925 Y97.475 E49.09478 F1800.000
G1 X114.050 Y97.475 E49.19870
G1 X114.050 Y96.775 E49.28184
G1 X115.025 Y96.775 E49.39763
G1 X115.025 Y77.025 E51.74324
G1 X120.475 Y77.025 E52.39051
G1 X120.475 Y99.150 E55.01819
G1 X135.950 Y99.150 E56.85609
G1 X135.950 Y132.975 E60.87332
G1 X114.050 Y132.975 E63.47427
G1 X114.050 Y132.275 E63.55741
G1 X114.865 Y132.275 E63.65420
G1 X115.325 Y132.275 F7200.000
G1 X115.415 Y129.582 F7200.000
G1 X115.415 Y125.368 E64.15470 F1800.000
G1 X116.710 Y123.625 F7200.000
G1 X119.465 Y123.625 E64.84822 F1800.000
G1 X119.727 Y122.596 F7200.000
G1 X119.727 Y116.954 E66.26902 F1800.000
G1 X119.386 Y114.982 F7200.000
G1 X119.043 Y114.639 E66.33431 F1800.000
G1 X117.899 Y114.639 E66.48836
G1 X119.384 Y116.124 E66.77100
G1 X118.276 Y116.161 E66.92010
G1 X116.791 Y114.676 E67.20275
G1 X116.789 Y115.818 E67.35644
G1 X117.132 Y116.161 E67.42173
G1 X115.415 Y117.668 F7200.000
G1 X115.415 Y121.882 E67.92222 F1800.000
G1 X118.652 Y125.968 F7200.000
G1 X118.652 Y129.582 E68.35145 F1800.000
G1 X118.029 Y131.400 F7200.000
G1 X122.471 Y131.400 E69.47009 F1800.000
G1 X123.412 Y131.190 F7200.000
G1 X123.412 Y128.560 E69.78235 F1800.000
G1 X125.068 Y132.200 F7200.000
G1 X130.932 Y132.200 E71.25897 F1800.000
G1 X132.782 Y131.111 F7200.000
G1 X132.439 Y130.768 E71.32426 F1800.000
G1 X132.439 Y129.624 E71.47830
G1 X133.926 Y131.111 E71.76144
G1 X134.086 Y130.126 E71.89572
G1 X132.599 Y128.639 E72.17886
G1 X133.743 Y128.639 E72.33291
G1 X134.086 Y128.982 E72.39819
G1 X135.350 Y127.132 F7200.000
G1 X135.350 Y102.618 E78.57099 F1800.000
G1 X134.165 Y101.062 F7200.000
G1 X119.465 Y101.062 E80.31684 F1800.000
G1 X119.727 Y103.304 F7200.000
G1 X119.727 Y113.846 E82.97149 F1800.000
G1 X115.415 Y113.132 F7200.000
G1 X115.415 Y109.375 E83.41770 F1800.000
G1 X115.282 Y108.575 F7200.000
G1 X118.562 Y108.575 E84.24362 F1800.000
G1 X115.415 Y107.775 F7200.000
G1 X115.415 Y104.018 E84.68983 F1800.000
G1 X117.132 Y102.511 F7200.000
G1 X116.789 Y102.168 E84.74867 F1800.000
G1 X118.163 Y102.511 F7200.000
G1 X116.789 Y101.137 E84.98449 F1800.000
G1 X116.789 Y100.105 E85.10964
G1 X119.195 Y102.511 E85.52244
G1 X118.611 Y100.896 F7200.000
G1 X116.789 Y99.073 E85.83508 F1800.000
G1 X116.889 Y98.142 E85.94874
G1 X118.611 Y99.864 E86.24422
G1 X118.611 Y98.832 E86.36936
G1 X116.889 Y97.110 E86.66484
G1 X116.889 Y96.079 E86.78998
G1 X118.611 Y97.801 E87.08546
G1 X118.611 Y96.769 E87.21061
G1 X116.889 Y95.047 E87.50609
G1 X116.889 Y94.015 E87.63123
G1 X118.611 Y95.738 E87.92671
G1 X118.611 Y94.706 E88.05185
G1 X116.889 Y92.984 E88.34733
G1 X116.889 Y91.952 E88.47248
G1 X118.611 Y93.674 E88.76795
G1 X118.611 Y92.643 E88.89310
G1 X116.889 Y90.920 E89.18858
G1 X116.889 Y89.889 E89.31372
G1 X118.611 Y91.611 E89.60920
G1 X118.611 Y90.580 E89.73434
G1 X116.889 Y88.857 E90.02982
G1 X116.889 Y87.826 E90.15497
G1 X118.611 Y89.548 E90.45045
G1 X118.611 Y88.516 E90.57559
G1 X116.889 Y86.794 E90.87107
G1 X116.889 Y85.762 E90.99621
G1 X118.611 Y87.485 E91.29169
G1 X118.611 Y86.453 E91.41684
G1 X116.889 Y84.731 E91.71231
G1 X116.889 Y83.699 E91.83746
G1 X118.611 Y85.421 E92.13294
G1 X118.611 Y84.390 E92.25808
G1 X116.889 Y82.668 E92.55356
G1 X116.889 Y81.636 E92.67870
G1 X118.611 Y83.358 E92.97418
G1 X118.611 Y82.327 E93.09933
G1 X116.889 Y80.604 E93.39481
G1 X116.889 Y79.573 E93.51995
G1 X118.611 Y81.295 E93.81543
G1 X118.611 Y80.263 E93.94057
G1 X117.237 Y78.889 E94.17640
G1 X118.268 Y78.889 E94.30154
G1 X118.611 Y79.232 E94.36038
M104 S210 ; set temperature
G1 Z0.550 F7200.000
G1 X119.300 Y129.625 F7200.000
G1 X119.300 Y126.525 E94.43149 F1200.000
G1 X121.450 Y126.525 E94.48081
G1 X121.450 Y103.175 E95.01640
G1 X134.550 Y103.175 E95.31688
G1 X134.550 Y126.575 E95.85362
G1 X130.375 Y126.575 E95.94939
G1 X130.375 Y131.225 E96.05605
G1 X125.625 Y131.225 E96.16500
G1 X125.625 Y126.575 E96.27166
G1 X121.200 Y126.575 E96.37316
G1 X121.200 Y129.625 E96.44312
G1 X119.360 Y129.625 E96.48533
G1 X118.900 Y129.625 F7200.000
G1 X118.144 Y130.781 F7200.000
G1 X122.356 Y130.781 E96.65546 F900.000
G1 X122.356 Y127.731 E96.77867
G1 X124.469 Y127.731 E96.86407
G1 X124.469 Y132.019 E97.03733
G1 X115.881 Y132.019 E97.38431
G1 X115.881 Y130.181 E97.45859
G1 X118.144 Y130.181 E97.55005
G1 X118.144 Y130.721 E97.57186
G1 X131.531 Y132.019 F7200.000
G1 X131.531 Y127.731 E97.74513 F900.000
G1 X134.994 Y127.731 E97.88506
G1 X134.994 Y132.019 E98.05832
G1 X131.591 Y132.019 E98.19583
G1 X135.350 Y127.375 F7200.000
G1 X135.350 Y102.375 F7200.000
G1 X119.196 Y102.375 F7200.000
G1 X119.725 Y108.575 F7200.000
G1 X118.805 Y115.580 F7200.000
G1 X119.118 Y123.625 F7200.000
G1 X119.693 Y124.768 F7200.000
G1 X119.405 Y125.125 F7200.000
G1 X119.161 Y124.769 F7200.000
G1 X115.881 Y124.769 E98.32834 F2400.000
G1 X115.881 Y122.481 E98.42081
G1 X119.161 Y122.481 E98.55332
G1 X119.161 Y117.069 E98.77192
G1 X115.881 Y117.069 E98.90443
G1 X115.881 Y113.731 E99.03932
G1 X119.161 Y113.731 E99.17183
G1 X119.161 Y103.419 E99.58839
G1 X115.881 Y103.419 E99.72090
G1 X115.881 Y97.731 E99.95072
G1 X115.981 Y97.731 E99.95476
G1 X115.981 Y77.981 E100.75265
G1 X119.519 Y77.981 E100.89561
G1 X119.519 Y100.106 E101.78944
G1 X134.994 Y100.106 E102.41462
G1 X134.994 Y102.019 E102.49194
G1 X120.294 Y102.019 E103.08580
G1 X120.294 Y125.369 E104.02912
G1 X119.161 Y125.369 E104.07493
G1 X119.161 Y124.829 E104.09674
G1 X118.513 Y125.417 F7200.000
G1 X115.233 Y125.417 E104.22925 F2400.000
G1 X115.233 Y121.833 E104.37406
G1 X118.513 Y121.833 E104.50657
G1 X118.513 Y117.717 E104.67284
G1 X115.233 Y117.717 E104.80535
G1 X115.233 Y113.083 E104.99257
G1 X118.513 Y113.083 E105.12508
G1 X118.513 Y108.967 E105.29135
G1 X115.233 Y108.967 E105.42386
G1 X115.233 Y108.183 E105.45555
G1 X118.513 Y108.183 E105.58805
G1 X118.513 Y104.067 E105.75432
G1 X115.233 Y104.067 E105.88683
G1 X115.233 Y97.083 E106.16900
G1 X115.333 Y97.083 E106.17304
G1 X115.333 Y77.333 E106.97092
G1 X120.167 Y77.333 E107.16622
G1 X120.167 Y99.458 E108.06006
G1 X135.642 Y99.458 E108.68523
G1 X135.642 Y132.667 E110.02687
G1 X115.233 Y132.667 E110.85139
G1 X115.233 Y129.533 E110.97802
G1 X118.792 Y129.533 E111.12181
G1 X118.792 Y130.133 E111.14605
G1 X121.708 Y130.133 E111.26384
G1 X121.708 Y127.083 E111.38706
G1 X125.117 Y127.083 E111.52479
G1 X125.117 Y131.733 E111.71265
G1 X130.883 Y131.733 E111.94558
G1 X130.883 Y127.083 E112.13343
G1 X135.058 Y127.083 E112.30210
G1 X135.058 Y102.667 E113.28847
G1 X120.942 Y102.667 E113.85873
G1 X120.942 Y126.017 E114.80205
G1 X118.513 Y126.017 E114.90020
G1 X118.513 Y125.477 E114.92201
G1 X118.005 Y107.675 F7200.000
G1 X116.105 Y107.675 E114.96559 F900.000
G1 X116.105 Y104.575 E115.03670
G1 X118.005 Y104.575 E115.08028
G1 X118.005 Y107.615 E115.15001
G1 X118.005 Y108.075 F7200.000
G1 X118.005 Y109.475 F7200.000
G1 X118.005 Y112.575 E115.22112 F900.000
G1 X116.105 Y112.575 E115.26470
G1 X116.105 Y109.475 E115.33581
G1 X117.945 Y109.475 E115.37801
G1 X118.405 Y109.475 F7200.000
G1 X118.005 Y118.225 F7200.000
G1 X118.005 Y121.325 E115.44912 F900.000
G1 X116.105 Y121.325 E115.49270
G1 X116.105 Y118.225 E115.56381
G1 X117.945 Y118.225 E115.60601
G1 X118.405 Y118.225 F7200.000
G1 X118.005 Y125.925 F7200.000
G1 X118.005 Y129.025 E115.67712 F900.000
G1 X116.105 Y129.025 E115.72070
G1 X116.105 Y125.925 E115.79181
G1 X117.945 Y125.925 E115.83401
G1 X118.405 Y125.925 F7200.000
G1 F5760
G1 X117.982 Y127.845 E115.07401
G1 E115.03401 F2400.00000
G92 E0
G1 Z1.050 F7200.000
G1 X115.525 Y129.825 F7200.000
G1 X115.525 Y129.825 F7200.000
G1 X114.725 Y132.075 F7200.000
G1 Z0.550 F7200.000
G1 E0.80000 F2400.00000
G1 X114.725 Y97.675 E1.58905 F1200.000
G1 X113.850 Y97.675 E1.60912
G1 X113.850 Y96.575 E1.63436
G1 X114.825 Y96.575 E1.65672
G1 X114.825 Y76.825 E2.10974
G1 X120.675 Y76.825 E2.24392
G1 X120.675 Y98.950 E2.75142
G1 X136.150 Y98.950 E3.10638
G1 X136.150 Y133.175 E3.89142
G1 X113.850 Y133.175 E4.40293
G1 X113.850 Y132.075 E4.42816
G1 X114.665 Y132.075 E4.44685
G1 X115.125 Y132.075 F7200.000
G1 X114.979 Y132.625 F7200.000
G1 X114.104 Y132.625 E4.48220 F1200.000
G1 X116.274 Y130.889 F7200.000
G1 X116.589 Y130.574 E4.51315 F1200.000
G1 X117.427 Y131.311 E4.59077
G1 X117.112 Y131.626 E4.62172
G1 X117.820 Y131.400 F7200.000
G1 X122.680 Y131.400 E5.02407 F1200.000
G1 X123.761 Y131.626 F7200.000
G1 X124.076 Y131.311 E5.04469 F1200.000
G1 X123.073 Y131.265 E5.09120
G1 X124.076 Y130.261 E5.15691
G1 X124.076 Y129.211 E5.20553
G1 X122.961 Y130.327 E5.27858
G1 X122.749 Y129.489 E5.31861
G1 X124.075 Y128.163 E5.40544
G1 X123.064 Y128.124 E5.45230
G1 X122.749 Y128.439 E5.47292
G1 F5760
G1 X123.064 Y128.124 E5.29667
G1 F5760
G1 X124.075 Y128.163 E4.89608
G1 F5760
G1 X123.748 Y128.490 E4.71292
G1 E4.67292 F2400.00000
G92 E0
G1 Z1.050 F7200.000
G1 X123.412 Y128.787 F7200.000
G1 X123.412 Y128.787 F7200.000
G1 X122.000 Y127.375 F7200.000
G1 X118.652 Y129.279 F7200.000
G1 Z0.550 F7200.000
G1 E0.80000 F2400.00000
G1 X118.652 Y126.271 E1.04906 F1200.000
G1 X119.586 Y124.976 F7200.000
G1 X119.901 Y124.661 E1.06909 F1200.000
G1 X119.166 Y124.376 E1.10454
G1 X119.901 Y123.641 E1.15129
G1 X119.325 Y123.198 E1.18401
G1 X118.146 Y124.376 E1.25897
G1 X117.126 Y124.376 E1.30485
G1 X118.629 Y122.874 E1.40042
G1 X117.609 Y122.874 E1.44629
G1 X116.274 Y124.209 E1.53121
G1 X116.274 Y123.189 E1.57709
G1 X116.589 Y122.874 E1.59711
G1 X115.415 Y121.579 F7200.000
G1 X115.415 Y117.971 E1.89586 F1200.000
G1 X116.274 Y114.439 F7200.000
G1 X116.589 Y114.124 E1.91638 F1200.000
G1 X117.634 Y114.124 E1.96456
G1 X116.274 Y115.484 E2.05321
G1 X116.274 Y116.529 E2.10139
G1 X118.654 Y114.149 E2.25656
G1 X119.400 Y114.448 F7200.000
G1 X117.172 Y116.676 E2.40182 F1200.000
G1 X118.217 Y116.676 E2.44999
G1 X119.901 Y114.992 E2.55976
G1 X119.901 Y116.037 E2.60794
G1 X119.586 Y116.352 E2.62846
G1 X119.727 Y116.745 F7200.000
G1 X119.727 Y122.805 E3.13018 F1200.000
G1 X115.415 Y125.671 F7200.000
G1 X115.415 Y129.279 E3.42893 F1200.000
G1 X124.793 Y132.200 F7200.000
G1 X131.207 Y132.200 E3.68803 F1200.000
G1 X134.286 Y131.626 F7200.000
G1 X134.601 Y131.311 E3.70619 F1200.000
G1 X134.601 Y130.386 E3.74392
