; generated by Slic3r 1.2.9 on 2017-08-12 at 20:55:17

; external perimeters extrusion width = 0.40mm
; perimeters extrusion width = 0.67mm
; infill extrusion width = 0.67mm
; solid infill extrusion width = 0.67mm
; top infill extrusion width = 0.67mm

M107
M115 U3.0.12 ; tell printer latest fw version
M83  ; extruder relative mode
M104 S215 ; set extruder temp
M140 S55 ; set bed temp
M190 S55 ; wait for bed temp
M109 S215 ; wait for extruder temp
G28 W ; home all without mesh bed level
G80 ; mesh bed leveling
G1 Y-3.0 F1000.0 ; go outside pritn area
G1 X60.0 E9.0  F1000.0 ; intro line
G1 X100.0 E12.5  F1000.0 ; intro line
G21 ; set units to millimeters
G90 ; use absolute coordinates
M82 ; use absolute distances for extrusion
G92 E0
G1 Z0.400 F7200.000
G1 E-0.80000 F2400.00000
G92 E0
G1 Z0.900 F7200.000
G1 X110.827 Y80.720 F7200.000
G1 Z0.400 F7200.000
G1 E0.80000 F2400.00000
G1 X112.583 Y79.220 E1.07422 F1800.000
G1 X114.743 Y78.405 E1.34845
G1 X116.000 Y78.286 E1.49842
G1 X134.000 Y78.286 E3.63619
G1 X136.275 Y78.683 E3.91041
G1 X138.280 Y79.827 E4.18464 F1800.000
G1 X139.780 Y81.583 E4.45886
G1 X140.595 Y83.743 E4.73309
G1 X140.714 Y85.000 E4.88306
G1 X140.714 Y125.000 E9.63366
G1 X140.317 Y127.275 E9.90789
G1 X139.173 Y129.280 E10.18211
G1 X137.417 Y130.780 E10.45634
G1 X135.257 Y131.595 E10.73056
G1 X134.000 Y131.714 E10.88053
G1 X116.000 Y131.714 E13.01830
G1 X113.725 Y131.317 E13.29253
G1 X111.720 Y130.173 E13.56675
G1 X110.220 Y128.417 E13.84098
G1 X109.405 Y126.257 E14.11520
G1 X109.286 Y125.000 E14.26517
G1 X109.286 Y85.000 E19.01577
G1 X109.683 Y82.725 E19.29000
G1 X110.797 Y80.772 E19.55710
G1 F5760
G1 X112.247 Y79.513 E18.79710
G1 E18.75710 F2400.00000
G92 E0
G1 Z0.900 F7200.000
G1 X127.750 Y124.150 F7200.000
G1 Z0.400 F7200.000
G1 E0.80000 F2400.00000
G1 X124.250 Y124.150 E1.21568 F1800.000
G1 X124.250 Y121.850 E1.48884
G1 X127.750 Y121.850 E1.90452
G1 X127.750 Y124.090 E2.17055
G1 X127.750 Y124.550 F7200.000
G1 X120.750 Y124.150 F7200.000
G1 X117.250 Y124.150 E2.58623 F1800.000
G1 X117.250 Y121.850 E2.85939
G1 X120.750 Y121.850 E3.27507
G1 X120.750 Y124.090 E3.54110
G1 X120.750 Y124.550 F7200.000
G1 X126.850 Y116.750 F7200.000
G1 X126.850 Y113.250 E3.95678 F1800.000
G1 X129.150 Y113.250 E4.22994
G1 X129.150 Y116.750 E4.64562
G1 X126.910 Y116.750 E4.91165
G1 X126.450 Y116.750 F7200.000
G1 X129.850 Y116.250 F7200.000
G1 X132.150 Y116.250 E5.18481 F1800.000
G1 X132.150 Y119.750 E5.60049
G1 X129.850 Y119.750 E5.87365
G1 X129.850 Y116.310 E6.28220
G1 X129.850 Y115.850 F7200.000
G1 X129.864 Y115.536 F7200.000
G1 X129.864 Y110.464 E6.88454 F1800.000
G1 X132.886 Y110.464 E7.24341
G1 X132.886 Y115.536 E7.84575
G1 X129.924 Y115.536 E8.19749
G1 X129.150 Y111.750 F7200.000
G1 X126.850 Y111.750 E8.47065 F1800.000
G1 X126.850 Y108.250 E8.88633
G1 X129.150 Y108.250 E9.15949
G1 X129.150 Y111.690 E9.56804
G1 X129.150 Y112.150 F7200.000
G1 X129.850 Y109.750 F7200.000
G1 X129.850 Y106.250 E9.98372 F1800.000
G1 X132.150 Y106.250 E10.25688
G1 X132.150 Y109.750 E10.67256
G1 X129.910 Y109.750 E10.93859
G1 X129.450 Y109.750 F7200.000
G1 X129.850 Y99.750 F7200.000
G1 X129.850 Y96.250 E11.35427 F1800.000
G1 X132.150 Y96.250 E11.62743
G1 X132.150 Y99.750 E12.04311
G1 X129.910 Y99.750 E12.30914
G1 X129.450 Y99.750 F7200.000
G1 X129.864 Y95.536 F7200.000
G1 X129.864 Y90.464 E12.91148 F1800.000
G1 X132.886 Y90.464 E13.27035
G1 X132.886 Y95.536 E13.87269
G1 X129.924 Y95.536 E14.22444
G1 X129.150 Y96.750 F7200.000
G1 X126.850 Y96.750 E14.49759 F1800.000
G1 X126.850 Y93.250 E14.91327
G1 X129.150 Y93.250 E15.18643
G1 X129.150 Y96.690 E15.59498
G1 X129.150 Y97.150 F7200.000
G1 X129.150 Y92.750 F7200.000
G1 X126.850 Y92.750 E15.86814 F1800.000
G1 X126.850 Y89.250 E16.28382
G1 X129.150 Y89.250 E16.55698
G1 X129.150 Y92.690 E16.96553
G1 X129.150 Y93.150 F7200.000
G1 F5760
G1 X127.231 Y92.740 E16.20553
G1 E16.16553 F2400.00000
G92 E0
G1 Z0.900 F7200.000
G1 X126.250 Y97.350 F7200.000
G1 X128.207 Y104.428 F7200.000
G1 X125.530 Y106.419 F7200.000
G1 X123.875 Y107.650 F7200.000
G1 X123.866 Y112.650 F7200.000
G1 X121.500 Y113.000 F7200.000
G1 X121.500 Y113.650 F7200.000
G1 X121.614 Y113.536 F7200.000
G1 Z0.400 F7200.000
G1 E0.80000 F2400.00000
G1 X121.614 Y118.464 E1.38531 F1800.000
G1 X117.886 Y118.464 E1.82811
G1 X117.886 Y113.536 E2.41342
G1 X121.554 Y113.536 E2.84909
G1 X120.900 Y114.250 F7200.000
G1 X120.900 Y117.750 E3.26477 F1800.000
G1 X118.600 Y117.750 E3.53792
G1 X118.600 Y114.250 E3.95360
G1 X120.840 Y114.250 E4.21964
G1 X121.300 Y114.250 F7200.000
G1 X121.614 Y112.464 F7200.000
G1 X117.886 Y112.464 E4.66243 F1800.000
G1 X117.886 Y107.536 E5.24774
G1 X121.614 Y107.536 E5.69054
G1 X121.614 Y112.404 E6.26872
G1 X120.900 Y111.750 F7200.000
G1 X118.600 Y111.750 E6.54188 F1800.000
G1 X118.600 Y108.250 E6.95756
G1 X120.900 Y108.250 E7.23072
G1 X120.900 Y111.690 E7.63927
G1 X120.900 Y112.150 F7200.000
G1 X122.960 Y105.202 F7200.000
G1 X122.567 Y105.046 E7.68951 F1800.000
G1 X122.196 Y104.842 E7.73971
G1 X121.854 Y104.594 E7.78991
G1 X121.546 Y104.304 E7.84014
G1 X121.277 Y103.979 E7.89034
G1 X121.050 Y103.622 E7.94054
G1 X120.869 Y103.236 E7.99114
G1 X120.736 Y102.820 E8.04302
G1 X120.660 Y102.422 E8.09116
G1 X120.634 Y102.000 E8.14136
G1 X120.660 Y101.578 E8.19157
G1 X120.739 Y101.163 E8.24178
G1 X120.870 Y100.761 E8.29200
G1 X121.050 Y100.378 E8.34219
G1 X121.277 Y100.021 E8.39240
G1 X121.546 Y99.696 E8.44260
G1 X121.854 Y99.406 E8.49283
G1 X122.196 Y99.158 E8.54303
G1 X122.567 Y98.954 E8.59323
G1 X122.960 Y98.798 E8.64346
G1 X123.369 Y98.693 E8.69365
G1 X123.788 Y98.640 E8.74384
G1 X124.212 Y98.640 E8.79409 F1800.000
G1 X124.631 Y98.693 E8.84428
G1 X125.040 Y98.798 E8.89447
G1 X125.433 Y98.954 E8.94470
G1 X125.804 Y99.158 E8.99490
G1 X126.146 Y99.406 E9.04510
G1 X126.454 Y99.696 E9.09533
G1 X126.723 Y100.021 E9.14553
G1 X126.950 Y100.378 E9.19574
G1 X127.127 Y100.754 E9.24505
G1 X127.254 Y101.129 E9.29206
G1 X127.340 Y101.578 E9.34639
G1 X127.366 Y102.000 E9.39660
G1 X127.340 Y102.422 E9.44680
G1 X127.261 Y102.837 E9.49703
G1 X127.130 Y103.239 E9.54723
G1 X126.950 Y103.622 E9.59743
G1 X126.723 Y103.979 E9.64763
G1 X126.454 Y104.304 E9.69783
G1 X126.146 Y104.594 E9.74806
G1 X125.804 Y104.842 E9.79826
G1 X125.433 Y105.046 E9.84846
G1 X125.040 Y105.202 E9.89870
G1 X124.631 Y105.307 E9.94888
G1 X124.212 Y105.360 E9.99907
G1 X123.788 Y105.360 E10.04932
G1 X123.369 Y105.307 E10.09952
G1 X123.018 Y105.217 E10.14257
G1 X123.181 Y104.521 F7200.000
G1 X122.871 Y104.399 E10.18212 F1800.000
G1 X122.580 Y104.238 E10.22166
G1 X122.310 Y104.043 E10.26118
G1 X122.068 Y103.815 E10.30073
G1 X121.855 Y103.558 E10.34026
G1 X121.677 Y103.277 E10.37980
G1 X121.535 Y102.975 E10.41947
G1 X121.430 Y102.644 E10.46067
G1 X121.370 Y102.332 E10.49839
G1 X121.349 Y102.000 E10.53793
G1 X121.370 Y101.668 E10.57746
G1 X121.432 Y101.341 E10.61700
G1 X121.535 Y101.024 E10.65654
G1 X121.677 Y100.723 E10.69606
G1 X121.855 Y100.442 E10.73560
G1 X122.068 Y100.185 E10.77513
G1 X122.310 Y99.957 E10.81468
G1 X122.580 Y99.762 E10.85421
G1 X122.871 Y99.601 E10.89374
G1 X123.181 Y99.479 E10.93329
G1 X123.503 Y99.396 E10.97281
G1 X123.833 Y99.354 E11.01235
G1 X124.167 Y99.354 E11.05190 F1800.000
G1 X124.497 Y99.396 E11.09143
G1 X124.819 Y99.479 E11.13095
G1 X125.129 Y99.601 E11.17050
G1 X125.420 Y99.762 E11.21003
G1 X125.690 Y99.957 E11.24956
G1 X125.932 Y100.185 E11.28911
G1 X126.145 Y100.442 E11.32864
G1 X126.323 Y100.723 E11.36818
G1 X126.464 Y101.022 E11.40739
G1 X126.562 Y101.311 E11.44372
G1 X126.630 Y101.668 E11.48681
G1 X126.651 Y102.000 E11.52635
G1 X126.630 Y102.332 E11.56588
G1 X126.567 Y102.659 E11.60543
G1 X126.465 Y102.976 E11.64496
G1 X126.323 Y103.277 E11.68449
G1 X126.145 Y103.558 E11.72402
G1 X125.932 Y103.815 E11.76355
G1 X125.690 Y104.043 E11.80310
G1 X125.420 Y104.238 E11.84263
G1 X125.129 Y104.399 E11.88216
G1 X124.819 Y104.521 E11.92171
G1 X124.497 Y104.604 E11.96124
G1 X124.167 Y104.646 E12.00077
G1 X123.833 Y104.646 E12.04032
G1 X123.503 Y104.604 E12.07985
G1 X123.239 Y104.536 E12.11225
G1 X122.929 Y104.739 F7200.000
G1 F5760
G1 X122.871 Y104.399 E11.95686
G1 F5760
G1 X122.580 Y104.238 E11.82509
G1 F5760
G1 X122.310 Y104.043 E11.69334
G1 F5760
G1 X122.068 Y103.815 E11.56154
G1 F5760
G1 X121.855 Y103.558 E11.42978
G1 F5760
G1 X121.751 Y103.393 E11.35225
G1 E11.31225 F2400.00000
G92 E0
G1 Z0.900 F7200.000
G1 X120.850 Y101.191 F7200.000
G1 X120.413 Y99.482 F7200.000
G1 X120.959 Y99.220 F7200.000
G1 X121.474 Y99.012 F7200.000
G1 X121.500 Y99.002 F7200.000
G1 X121.500 Y98.350 F7200.000
G1 X121.614 Y98.464 F7200.000
G1 Z0.400 F7200.000
G1 E0.80000 F2400.00000
G1 X117.886 Y98.464 E1.24279 F1800.000
G1 X117.886 Y88.536 E2.42193
G1 X121.614 Y88.536 E2.86473
G1 X121.614 Y98.404 E4.03674
G1 X120.900 Y97.750 F7200.000
G1 X118.600 Y97.750 E4.30990 F1800.000
G1 X118.600 Y94.250 E4.72558
G1 X120.900 Y94.250 E4.99874
G1 X120.900 Y97.690 E5.40729
G1 X120.900 Y98.150 F7200.000
G1 X120.900 Y92.750 F7200.000
G1 X118.600 Y92.750 E5.68045 F1800.000
G1 X118.600 Y89.250 E6.09613
G1 X120.900 Y89.250 E6.36929
G1 X120.900 Y92.690 E6.77784
G1 X120.900 Y93.150 F7200.000
G1 X126.136 Y88.536 F7200.000
G1 X126.136 Y97.464 E7.83821 F1800.000
G1 X129.136 Y97.464 E8.19451
G1 X129.136 Y100.464 E8.55080
G1 X132.886 Y100.464 E8.99617
G1 X132.886 Y105.536 E9.59851
G1 X129.136 Y105.536 E10.04388
G1 X129.136 Y107.536 E10.28141
G1 X126.136 Y107.536 E10.63771
G1 X126.136 Y117.464 E11.81685
G1 X129.136 Y117.464 E12.17314
G1 X129.136 Y120.464 E12.52944
G1 X132.886 Y120.464 E12.97481
G1 X132.886 Y123.886 E13.38118
G1 X128.464 Y123.886 E13.90633
G1 X128.464 Y121.136 E14.23293
G1 X123.536 Y121.136 E14.81824
G1 X123.536 Y123.886 E15.14485
G1 X121.464 Y123.886 E15.39089
G1 X121.464 Y121.136 E15.71749
G1 X117.114 Y121.136 E16.23412
G1 X117.114 Y86.114 E20.39348
G1 X129.136 Y86.114 E21.82124
G1 X129.136 Y88.536 E22.10885
G1 X126.196 Y88.536 E22.45802
G1 X129.850 Y89.750 F7200.000
G1 X129.850 Y86.250 E22.87370 F1800.000
G1 X132.150 Y86.250 E23.14686
G1 X132.150 Y89.750 E23.56253
G1 X129.910 Y89.750 E23.82857
G1 X129.450 Y89.750 F7200.000
G1 F5760
G1 X129.877 Y87.830 E23.06857
G1 E23.02857 F2400.00000
G92 E0
G1 Z0.900 F7200.000
G1 X132.750 Y86.000 F7200.000
G1 X132.750 Y86.000 F7200.000
G1 X132.875 Y86.125 F7200.000
G1 X133.000 Y86.000 F7200.000
G1 X133.600 Y85.400 F7200.000
G1 Z0.400 F7200.000
G1 E0.80000 F2400.00000
G1 X133.600 Y124.600 E5.45560 F1800.000
G1 X116.400 Y124.600 E7.49836
G1 X116.400 Y85.400 E12.15395
G1 X133.540 Y85.400 E14.18959
G1 X133.400 Y85.746 F7200.000
G1 X132.875 Y85.757 F7200.000
G1 X132.875 Y90.107 E15.28494 F1800.000
G1 X132.450 Y91.243 F7200.000
G1 X132.107 Y90.900 E15.34957 F1800.000
G1 X130.974 Y90.900 E15.50054
G1 X132.450 Y92.376 E15.77867
G1 X132.450 Y93.509 E15.92964
G1 X130.300 Y91.358 E16.33488
G1 X130.300 Y92.491 E16.48585
G1 X132.450 Y94.642 E16.89109
G1 X131.776 Y95.100 E16.99977
G1 X130.300 Y93.624 E17.27790
G1 X130.300 Y94.757 E17.42887
G1 X130.643 Y95.100 E17.49349
G1 X132.875 Y95.893 F7200.000
G1 X132.875 Y100.107 E18.55464 F1800.000
G1 X132.875 Y105.893 F7200.000
G1 X132.875 Y110.107 E19.61578 F1800.000
G1 X132.450 Y111.243 F7200.000
G1 X132.107 Y110.900 E19.68041 F1800.000
G1 X130.974 Y110.900 E19.83138
G1 X132.450 Y112.376 E20.10951
G1 X132.450 Y113.509 E20.26048
G1 X130.300 Y111.358 E20.66572
G1 X130.300 Y112.491 E20.81669
G1 X132.450 Y114.642 E21.22194
G1 X131.776 Y115.100 E21.33061
G1 X130.300 Y113.624 E21.60874
G1 X130.300 Y114.757 E21.75971
G1 X130.643 Y115.100 E21.82434
G1 X132.875 Y115.893 F7200.000
G1 X132.875 Y120.107 E22.88548 F1800.000
G1 X132.450 Y121.243 F7200.000
G1 X132.107 Y120.900 E22.94755 F1800.000
G1 X131.024 Y120.900 E23.08614
G1 X132.450 Y122.326 E23.34421
G1 X132.450 Y123.409 E23.48280
G1 X129.941 Y120.900 E23.93686
G1 X128.900 Y120.941 E24.07024
G1 X131.409 Y123.450 E24.52430
G1 X130.326 Y123.450 E24.66289
G1 X128.900 Y122.024 E24.92096
G1 X128.900 Y123.107 E25.05955
G1 X129.243 Y123.450 E25.12162
G1 X126.609 Y120.711 F7200.000
G1 X122.039 Y116.141 E25.94868 F1800.000
G1 X122.039 Y117.229 E26.08793
G1 X125.521 Y120.711 E26.71807
G1 X124.433 Y120.711 E26.85732
G1 X122.039 Y118.317 E27.29054
G1 X121.522 Y118.889 F7200.000
G1 X123.344 Y120.711 E27.62036 F1800.000
G1 X123.111 Y121.566 E27.73376
G1 X120.434 Y118.889 E28.21830
G1 X119.346 Y118.889 E28.35755
G1 X121.168 Y120.711 E28.68737
G1 X121.889 Y121.432 F7200.000
G1 X123.111 Y122.654 E28.90861 F1800.000
G1 X122.830 Y123.461 E29.01795
G1 X121.889 Y122.520 E29.18828
G1 X120.080 Y120.711 F7200.000
G1 X118.325 Y118.956 E29.50595 F1800.000
G1 X117.539 Y119.258 F7200.000
G1 X118.992 Y120.711 E29.76890 F1800.000
G1 X117.904 Y120.711 E29.90814
G1 X117.539 Y120.346 E29.97417
G1 X117.500 Y118.350 F7200.000
G1 X117.711 Y113.000 F7200.000
G1 X118.000 Y113.000 F7200.000
G1 X121.500 Y113.000 F7200.000
G1 X122.396 Y113.234 F7200.000
G1 X125.711 Y116.549 E30.57416 F1800.000
G1 X125.711 Y117.637 E30.71340
G1 X122.039 Y113.965 E31.37801
G1 X122.039 Y115.053 E31.51726
G1 X127.697 Y120.711 E32.54124
G1 X128.711 Y120.637 E32.67135
G1 X125.963 Y117.889 E33.16873
G1 X127.051 Y117.889 E33.30798
G1 X128.711 Y119.549 E33.60843
G1 X128.711 Y118.461 E33.74768
G1 X128.139 Y117.889 E33.85121
G1 X123.875 Y117.350 F7200.000
G1 X123.866 Y112.650 F7200.000
G1 X123.875 Y112.350 F7200.000
G1 X126.250 Y112.350 F7200.000
G1 X125.711 Y111.108 F7200.000
G1 X117.539 Y102.936 E35.33016 F1800.000
G1 X117.539 Y104.024 E35.46941
G1 X120.626 Y107.111 E36.02815
G1 X119.538 Y107.111 E36.16739
G1 X117.539 Y105.112 E36.52921
G1 X117.539 Y106.200 E36.66845
G1 X118.093 Y106.754 E36.76873
G1 X122.039 Y108.524 F7200.000
G1 X125.711 Y112.196 E37.43334 F1800.000
G1 X125.711 Y113.284 E37.57258
G1 X122.039 Y109.612 E38.23719
G1 X122.039 Y110.700 E38.37643
G1 X125.711 Y114.373 E39.04104
G1 X125.711 Y115.461 E39.18029
G1 X122.039 Y111.788 E39.84489
G1 X125.711 Y107.844 F7200.000
G1 X123.652 Y105.784 E40.21755 F1800.000
G1 X122.222 Y105.443 E40.40562
G1 X125.711 Y108.932 E41.03697
G1 X125.711 Y110.020 E41.17621
G1 X117.539 Y101.847 E42.65516
G1 X117.539 Y100.759 E42.79441
G1 X120.564 Y103.784 E43.34183
G1 X120.220 Y102.352 E43.53028
G1 X117.539 Y99.671 E44.01548
G1 X117.845 Y98.889 E44.12296
G1 X120.301 Y101.345 E44.56740
G1 X120.570 Y100.526 E44.67766
G1 X118.933 Y98.889 E44.97402
G1 X120.021 Y98.889 E45.11326
G1 X120.966 Y99.834 E45.28436
G1 X121.484 Y99.264 E45.38293
G1 X121.109 Y98.889 E45.45077
G1 X122.039 Y97.642 F7200.000
G1 X122.839 Y98.442 E45.59551 F1800.000
G1 X123.725 Y98.240 E45.71180
G1 X122.039 Y96.554 E46.01689
G1 X122.039 Y95.466 E46.15614
G1 X124.844 Y98.270 E46.66372
G1 X126.638 Y97.889 F7200.000
G1 X128.711 Y99.962 E47.03888 F1800.000
G1 X128.711 Y98.874 E47.17812
G1 X127.726 Y97.889 E47.35635
G1 X129.638 Y100.889 F7200.000
G1 X132.461 Y103.712 E47.86723 F1800.000
G1 X132.461 Y102.624 E48.00648
G1 X130.726 Y100.889 E48.32043
G1 X131.815 Y100.889 E48.45968
G1 X132.461 Y101.535 E48.57671
G1 X126.067 Y107.111 F7200.000
G1 X124.658 Y105.702 E48.83180 F1800.000
G1 X125.477 Y105.433 E48.94217
G1 X127.155 Y107.111 E49.24584
G1 X128.244 Y107.111 E49.38509
G1 X126.160 Y105.028 E49.76204
G1 X126.741 Y104.520 E49.86072
G1 X128.711 Y106.491 E50.21736
G1 X128.711 Y105.403 E50.35661
G1 X127.205 Y103.897 E50.62915
G1 X127.557 Y103.161 E50.73355
G1 X129.508 Y105.111 E51.08654
G1 X130.596 Y105.111 E51.22579
G1 X127.764 Y102.279 E51.73827
G1 X127.725 Y101.151 E51.88269
G1 X131.684 Y105.111 E52.59928
G1 X132.461 Y104.800 E52.70637
G1 X122.039 Y94.377 E54.59249
G1 X122.039 Y93.289 E54.73173
G1 X125.711 Y96.962 E55.39634
G1 X125.711 Y95.874 E55.53559
G1 X122.039 Y92.201 E56.20019
G1 X122.039 Y91.113 E56.33944
G1 X125.711 Y94.785 E57.00404
G1 X125.711 Y93.697 E57.14329
G1 X122.039 Y90.025 E57.80790
G1 X122.039 Y88.936 E57.94714
G1 X125.711 Y92.609 E58.61175
G1 X125.711 Y91.521 E58.75099
G1 X120.729 Y86.539 E59.65259
G1 X121.817 Y86.539 E59.79184
G1 X125.711 Y90.433 E60.49651
G1 X125.711 Y89.345 E60.63576
G1 X122.905 Y86.539 E61.14351
G1 X123.994 Y86.539 E61.28276
G1 X125.711 Y88.256 E61.59359
G1 X126.654 Y88.111 E61.71569
