; generated by Slic3r 1.2.9 on 2017-08-05 at 01:04:40

; external perimeters extrusion width = 0.40mm
; perimeters extrusion width = 0.43mm
; infill extrusion width = 0.43mm
; solid infill extrusion width = 0.43mm
; top infill extrusion width = 0.43mm

M107
M115 U3.0.12 ; tell printer latest fw version
M83  ; extruder relative mode
M104 S215 ; set extruder temp
M140 S55 ; set bed temp
M190 S55 ; wait for bed temp
M109 S215 ; wait for extruder temp
G28 W ; home all without mesh bed level
G80 ; mesh bed leveling
G1 Y-3.0 F1000.0 ; go outside pritn area
G1 X60.0 E9.0  F1000.0 ; intro line
G1 X100.0 E12.5  F1000.0 ; intro line
G21 ; set units to millimeters
G90 ; use absolute coordinates
M82 ; use absolute distances for extrusion
G92 E0
G1 Z0.400 F7200.000
G1 E-0.80000 F2400.00000
G92 E0
G1 Z0.900 F7200.000
G1 X84.720 Y67.157 F7200.000
G1 Z0.400 F7200.000
G1 E0.80000 F2400.00000
G1 X86.547 Y65.746 E1.07422 F1800.000
G1 X89.675 Y64.973 E1.45685
G1 X95.925 Y64.973 E2.19914
G1 X98.200 Y65.370 E2.47336
G1 X100.205 Y66.514 E2.74759 F1800.000
G1 X101.437 Y67.853 E2.96361
G1 X116.812 Y89.953 E6.16102
G1 X117.785 Y92.047 E6.43524
G1 X118.014 Y93.787 E6.64374
G1 X118.014 Y128.313 E10.74411
G1 X117.617 Y130.587 E11.01833
G1 X116.473 Y132.593 E11.29256
G1 X114.717 Y134.092 E11.56678
G1 X112.557 Y134.908 E11.84101
G1 X111.300 Y135.027 E11.99097
G1 X88.700 Y135.027 E14.67507
G1 X86.425 Y134.630 E14.94929
G1 X84.420 Y133.486 E15.22352
G1 X82.920 Y131.730 E15.49774
G1 X82.105 Y129.570 E15.77197
G1 X81.986 Y128.313 E15.92193
G1 X81.994 Y91.081 E20.34374
G1 X82.969 Y71.356 E22.68924
G1 X83.478 Y69.104 E22.96346
G1 X84.687 Y67.208 E23.23056
G1 F5760
G1 X86.197 Y66.022 E22.47056
G1 E22.43056 F2400.00000
G92 E0
G1 Z0.900 F7200.000
G1 X109.700 Y121.712 F7200.000
G1 Z0.400 F7200.000
G1 E0.80000 F2400.00000
G1 X105.575 Y121.712 E1.28991 F1800.000
G1 X105.575 Y126.362 E1.84216
G1 X100.425 Y126.362 E2.45380
G1 X100.425 Y121.712 E3.00606
G1 X96.400 Y121.712 E3.48409
G1 X96.400 Y124.762 E3.84633
G1 X94.100 Y124.762 E4.11949
G1 X94.100 Y121.262 E4.53516
G1 X96.300 Y121.262 E4.79645
G1 X96.300 Y98.012 E7.55774
G1 X109.700 Y98.012 E9.14919
G1 X109.700 Y121.652 E11.95680
G1 X109.700 Y122.112 F7200.000
G1 F5760
G1 X107.780 Y121.680 E11.19680
G1 E11.15680 F2400.00000
G92 E0
G1 Z0.900 F7200.000
G1 X99.825 Y122.312 F7200.000
G1 X98.369 Y125.857 F7200.000
G1 X99.475 Y126.962 F7200.000
G1 X106.525 Y126.962 F7200.000
G1 X110.300 Y122.313 F7200.000
G1 X110.300 Y97.413 F7200.000
G1 X95.700 Y97.413 F7200.000
G1 X93.840 Y110.223 F7200.000
G1 X94.770 Y117.112 F7200.000
G1 X93.840 Y118.613 F7200.000
G1 X93.840 Y120.113 F7200.000
G1 X93.954 Y119.998 F7200.000
G1 Z0.400 F7200.000
G1 E0.80000 F2400.00000
G1 X90.689 Y119.998 E1.18777 F1800.000
G1 X90.689 Y117.227 E1.51695
G1 X93.954 Y117.227 E1.90472
G1 X93.954 Y112.298 E2.49003
G1 X90.689 Y112.298 E2.87780
G1 X90.689 Y108.477 E3.33168
G1 X93.954 Y108.477 E3.71945
G1 X93.954 Y98.648 E4.88671
G1 X90.689 Y98.648 E5.27448
G1 X90.689 Y92.527 E6.00152
G1 X90.789 Y92.527 E6.01340
G1 X90.789 Y72.802 E8.35604
G1 X94.811 Y72.802 E8.83368
G1 X94.811 Y94.902 E11.45839
G1 X110.186 Y94.902 E13.28440
G1 X110.186 Y97.298 E13.56904
G1 X95.586 Y97.298 E15.30301
G1 X95.586 Y120.548 E18.06431
G1 X93.954 Y120.548 E18.25809
G1 X93.954 Y120.058 E18.31629
G1 X93.240 Y102.862 F7200.000
G1 X90.940 Y102.862 E18.58945 F1800.000
G1 X90.940 Y99.362 E19.00513
G1 X93.240 Y99.362 E19.27829
G1 X93.240 Y102.802 E19.68684
G1 X93.240 Y103.262 F7200.000
G1 X93.240 Y104.262 F7200.000
G1 X93.240 Y107.762 E20.10252 F1800.000
G1 X90.940 Y107.762 E20.37568
G1 X90.940 Y104.262 E20.79135
G1 X93.180 Y104.262 E21.05739
G1 X93.640 Y104.262 F7200.000
G1 X93.240 Y113.012 F7200.000
G1 X93.240 Y116.512 E21.47307 F1800.000
G1 X90.940 Y116.512 E21.74623
G1 X90.940 Y113.012 E22.16190
G1 X93.180 Y113.012 E22.42794
G1 X93.640 Y113.012 F7200.000
G1 X93.240 Y120.713 F7200.000
G1 X93.240 Y124.212 E22.84362 F1800.000
G1 X90.940 Y124.212 E23.11677
G1 X90.940 Y120.713 E23.53245
G1 X93.180 Y120.713 E23.79849
G1 X93.640 Y120.713 F7200.000
G1 X93.386 Y125.477 F7200.000
G1 X97.114 Y125.477 E24.24128 F1800.000
G1 X97.114 Y122.427 E24.60352
G1 X99.711 Y122.427 E24.91191
G1 X99.711 Y127.198 E25.47862
G1 X90.689 Y127.198 E26.55008
G1 X90.689 Y124.927 E26.81988
G1 X93.386 Y124.927 E27.14015
G1 X93.386 Y125.417 E27.19835
G1 X106.289 Y127.198 F7200.000
G1 X106.289 Y122.427 E27.76505 F1800.000
G1 X110.186 Y122.427 E28.22785
G1 X110.186 Y127.198 E28.79455
G1 X106.349 Y127.198 E29.25022
G1 X89.975 Y127.262 F7200.000
G1 X89.975 Y92.463 E33.38325 F1800.000
G1 X89.100 Y92.463 E33.48717
G1 X89.100 Y91.812 E33.56436
G1 X90.075 Y91.812 E33.68016
G1 X90.075 Y72.087 E36.02280
G1 X95.525 Y72.087 E36.67007
G1 X95.525 Y94.187 E39.29478
G1 X110.900 Y94.187 E41.12080
G1 X110.900 Y127.912 E45.12615
G1 X89.100 Y127.912 E47.71524
G1 X89.100 Y127.262 E47.79243
G1 X89.915 Y127.262 E47.88923
G1 X90.375 Y127.262 F7200.000
G1 X91.125 Y126.420 F7200.000
G1 X91.468 Y126.763 E47.95149 F1800.000
G1 X92.556 Y126.760 E48.09123
G1 X91.162 Y125.365 E48.34440
G1 X92.250 Y125.362 E48.48414
G1 X92.593 Y125.705 E48.54641
G1 X93.029 Y126.337 F7200.000
G1 X97.471 Y126.337 E49.66504 F1800.000
G1 X97.907 Y126.420 F7200.000
G1 X98.250 Y126.763 E49.73040 F1800.000
G1 X99.275 Y126.643 E49.86953
G1 X97.907 Y125.274 E50.13031
G1 X97.550 Y123.771 E50.33845
G1 X99.275 Y125.497 E50.66726
G1 X99.275 Y124.351 E50.82165
G1 X97.787 Y122.862 E51.10534
G1 X98.932 Y122.862 E51.25972
G1 X99.275 Y123.205 E51.32508
G1 X100.068 Y127.137 F7200.000
G1 X105.932 Y127.137 E52.80170 F1800.000
G1 X106.725 Y126.420 F7200.000
G1 X107.068 Y126.763 E52.86103 F1800.000
G1 X108.108 Y126.763 E52.98823
G1 X106.725 Y125.380 E53.22744
G1 X106.725 Y124.340 E53.35464
G1 X109.148 Y126.763 E53.77374
G1 X109.750 Y126.325 E53.86481
G1 X106.725 Y123.300 E54.38813
G1 X107.327 Y122.862 E54.47920
G1 X109.750 Y125.285 E54.89830
G1 X109.750 Y124.245 E55.02550
G1 X108.367 Y122.862 E55.26472
G1 X109.407 Y122.862 E55.39192
G1 X109.750 Y123.205 E55.45124
G1 X110.300 Y122.070 F7200.000
G1 X110.300 Y97.655 E61.59886 F1800.000
G1 X94.770 Y98.291 F7200.000
G1 X94.770 Y108.834 E64.25351 F1800.000
G1 X95.150 Y109.612 F7200.000
G1 X94.807 Y109.269 E64.32120 F1800.000
G1 X93.621 Y109.269 E64.48678
G1 X95.150 Y110.799 E64.78864
G1 X94.671 Y111.506 E64.90785
G1 X92.077 Y108.912 E65.41967
G1 X91.125 Y109.147 E65.55652
G1 X93.534 Y111.556 E66.03207
G1 X92.654 Y111.863 E66.16212
G1 X91.125 Y110.333 E66.46398
G1 X91.125 Y111.520 E66.62957
G1 X91.468 Y111.863 E66.69725
G1 X90.457 Y112.655 F7200.000
G1 X90.457 Y116.870 E67.19775 F1800.000
G1 X91.125 Y119.220 F7200.000
G1 X91.468 Y119.563 E67.26738 F1800.000
G1 X92.688 Y119.563 E67.44264
G1 X91.125 Y117.999 E67.76012
G1 X92.009 Y117.662 E67.89592
G1 X93.909 Y119.563 E68.28179
G1 X95.150 Y119.583 E68.45998
G1 X93.587 Y118.019 E68.77746
G1 X94.807 Y118.019 E68.95272
G1 X95.150 Y118.362 E69.02235
G1 X93.534 Y117.967 F7200.000
G1 X93.229 Y117.662 E69.08428 F1800.000
G1 X94.770 Y117.584 F7200.000
G1 X94.770 Y111.941 E70.50508 F1800.000
G1 X90.457 Y108.120 F7200.000
G1 X90.457 Y104.362 E70.95129 F1800.000
G1 X90.332 Y103.562 F7200.000
G1 X93.597 Y103.562 E71.77344 F1800.000
G1 X90.457 Y102.762 F7200.000
G1 X90.457 Y99.005 E72.21965 F1800.000
G1 X91.468 Y98.213 F7200.000
G1 X91.125 Y97.870 E72.27783 F1800.000
G1 X91.125 Y96.850 E72.40017
G1 X92.488 Y98.213 E72.63137
G1 X93.508 Y98.213 E72.75372
G1 X91.125 Y95.830 E73.15795
G1 X91.125 Y94.810 E73.28029
G1 X94.171 Y97.856 E73.79697
G1 X95.150 Y97.815 E73.91458
G1 X91.125 Y93.790 E74.59745
G1 X91.225 Y92.870 E74.70845
G1 X95.218 Y96.863 E75.38578
G1 X109.750 Y96.095 F7200.000
G1 X108.992 Y95.337 E75.51437 F1800.000
G1 X107.972 Y95.337 E75.63672
G1 X109.498 Y96.863 E75.89551
G1 X108.478 Y96.863 E76.01786
G1 X106.952 Y95.337 E76.27665
G1 X105.932 Y95.337 E76.39900
G1 X107.458 Y96.863 E76.65779
G1 X106.438 Y96.863 E76.78013
G1 X104.912 Y95.337 E77.03893
G1 X103.892 Y95.337 E77.16127
G1 X105.418 Y96.863 E77.42007
G1 X104.398 Y96.863 E77.54241
G1 X102.872 Y95.337 E77.80120
G1 X101.852 Y95.337 E77.92355
G1 X103.378 Y96.863 E78.18234
G1 X102.358 Y96.863 E78.30469
G1 X100.832 Y95.337 E78.56348
G1 X99.812 Y95.337 E78.68583
G1 X101.338 Y96.863 E78.94462
G1 X100.318 Y96.863 E79.06697
G1 X98.792 Y95.337 E79.32576
G1 X97.772 Y95.337 E79.44810
G1 X99.298 Y96.863 E79.70690
G1 X98.278 Y96.863 E79.82924
G1 X96.752 Y95.337 E80.08804
G1 X95.732 Y95.337 E80.21038
G1 X97.258 Y96.863 E80.46918
G1 X96.238 Y96.863 E80.59152
G1 X91.225 Y91.850 E81.44188
G1 X91.225 Y90.830 E81.56422
G1 X94.375 Y93.980 E82.09866
G1 X94.375 Y92.960 E82.22101
G1 X91.225 Y89.810 E82.75545
G1 X91.225 Y88.790 E82.87779
G1 X94.375 Y91.940 E83.41223
G1 X94.375 Y90.920 E83.53458
G1 X91.225 Y87.770 E84.06902
G1 X91.225 Y86.750 E84.19137
G1 X94.375 Y89.900 E84.72580
G1 X94.375 Y88.880 E84.84815
G1 X91.225 Y85.730 E85.38259
G1 X91.225 Y84.710 E85.50494
G1 X94.375 Y87.860 E86.03938
G1 X94.375 Y86.840 E86.16172
G1 X91.225 Y83.690 E86.69616
G1 X91.225 Y82.670 E86.81851
G1 X94.375 Y85.820 E87.35295
G1 X94.375 Y84.800 E87.47529
G1 X91.225 Y81.650 E88.00973
G1 X91.225 Y80.630 E88.13208
G1 X94.375 Y83.780 E88.66652
G1 X94.375 Y82.760 E88.78886
G1 X91.225 Y79.610 E89.32330
G1 X91.225 Y78.590 E89.44565
G1 X94.375 Y81.740 E89.98009
G1 X94.375 Y80.720 E90.10243
G1 X91.225 Y77.570 E90.63687
G1 X91.225 Y76.550 E90.75922
G1 X94.375 Y79.700 E91.29366
G1 X94.375 Y78.680 E91.41600
G1 X91.225 Y75.530 E91.95044
G1 X91.225 Y74.510 E92.07279
G1 X94.375 Y77.660 E92.60723
G1 X94.375 Y76.640 E92.72957
G1 X91.225 Y73.490 E93.26401
G1 X91.992 Y73.237 E93.36094
G1 X94.375 Y75.620 E93.76516
G1 X94.375 Y74.600 E93.88751
G1 X93.012 Y73.237 E94.11871
G1 X94.032 Y73.237 E94.24106
G1 X94.375 Y73.580 E94.29924
G1 X92.800 Y92.412 F7200.000
G1 X92.750 Y94.787 F7200.000
G1 X93.019 Y96.318 F7200.000
G1 X90.575 Y98.763 F7200.000
G1 X90.457 Y120.355 F7200.000
G1 X90.457 Y124.570 E94.79973 F1800.000
M104 S210 ; set temperature
G1 Z0.750 F7200.000
G1 X93.958 Y124.904 F7200.000
G1 X93.958 Y121.121 E94.99742 F2400.000
G1 X96.158 Y121.121 E95.11236
G1 X96.158 Y97.871 E96.32706
G1 X109.842 Y97.871 E97.04197
G1 X109.842 Y121.854 E98.29501
G1 X105.717 Y121.854 E98.51052
G1 X105.717 Y126.504 E98.75346
G1 X100.283 Y126.504 E99.03736
G1 X100.283 Y121.854 E99.28029
G1 X96.542 Y121.854 E99.47575
G1 X96.542 Y124.904 E99.63509
G1 X94.018 Y124.904 E99.76696
G1 F5760
G1 X93.988 Y122.985 E99.00696
G1 E98.96696 F2400.00000
G92 E0
G1 Z1.250 F7200.000
G1 X97.000 Y122.312 F7200.000
G1 X97.000 Y122.312 F7200.000
G1 X96.500 Y121.512 F7200.000
G1 Z0.750 F7200.000
G1 E0.80000 F2400.00000
G1 X96.500 Y98.212 E1.90152 F1200.000
G1 X109.500 Y98.212 E2.51611
G1 X109.500 Y121.512 E3.61763
G1 X105.375 Y121.512 E3.81264
G1 X105.375 Y126.162 E4.03247
G1 X100.625 Y126.162 E4.25703
G1 X100.625 Y121.512 E4.47686
G1 X96.560 Y121.512 E4.66904
G1 X96.100 Y121.512 F7200.000
G1 X96.200 Y121.463 F7200.000
G1 X96.200 Y124.563 E4.81559 F900.000
G1 X94.300 Y124.563 E4.90542
G1 X94.300 Y121.463 E5.05197
G1 X96.140 Y121.463 E5.13896
G1 X96.600 Y121.463 F7200.000
G1 X93.382 Y103.004 F7200.000
G1 X90.798 Y103.004 E5.27396 F900.000
G1 X90.798 Y99.221 E5.47165
G1 X93.382 Y99.221 E5.60665
G1 X93.382 Y102.944 E5.80120
G1 X93.040 Y102.662 F7200.000
G1 X91.140 Y102.662 E5.89103 F900.000
G1 X91.140 Y99.562 E6.03758
G1 X93.040 Y99.562 E6.12740
G1 X93.040 Y102.602 E6.27112
G1 X93.040 Y103.063 F7200.000
G1 X93.382 Y104.121 F7200.000
G1 X93.382 Y107.904 E6.46881 F900.000
G1 X90.798 Y107.904 E6.60381
G1 X90.798 Y104.121 E6.80150
G1 X93.322 Y104.121 E6.93336
G1 X93.040 Y104.462 F7200.000
G1 X93.040 Y107.563 E7.07992 F900.000
G1 X91.140 Y107.563 E7.16974
G1 X91.140 Y104.462 E7.31630
G1 X92.980 Y104.462 E7.40328
G1 X93.440 Y104.462 F7200.000
G1 X93.382 Y112.871 F7200.000
G1 X93.382 Y116.654 E7.60097 F900.000
G1 X90.798 Y116.654 E7.73597
G1 X90.798 Y112.871 E7.93366
G1 X93.322 Y112.871 E8.06553
G1 X93.040 Y113.213 F7200.000
G1 X93.040 Y116.313 E8.21208 F900.000
G1 X91.140 Y116.313 E8.30190
G1 X91.140 Y113.213 E8.44846
G1 X92.980 Y113.213 E8.53545
G1 X93.440 Y113.213 F7200.000
G1 X93.382 Y120.571 F7200.000
G1 X93.382 Y124.354 E8.73314 F900.000
G1 X90.798 Y124.354 E8.86813
G1 X90.798 Y120.571 E9.06582
G1 X93.322 Y120.571 E9.19769
G1 X93.040 Y120.912 F7200.000
G1 X93.040 Y124.012 E9.34424 F900.000
G1 X91.140 Y124.012 E9.43407
G1 X91.140 Y120.912 E9.58062
G1 X92.980 Y120.912 E9.66761
G1 X93.440 Y120.912 F7200.000
G1 F5760
G1 X93.017 Y122.832 E8.90761
G1 E8.86761 F2400.00000
G92 E0
G1 Z1.250 F7200.000
G1 X90.575 Y124.812 F7200.000
G1 X90.575 Y124.812 F7200.000
G1 X91.825 Y126.063 F7200.000
G1 X90.575 Y127.313 F7200.000
G1 X90.117 Y127.404 F7200.000
G1 Z0.750 F7200.000
G1 E0.80000 F2400.00000
G1 X90.117 Y92.321 E2.63296 F2400.000
G1 X89.242 Y92.321 E2.67867
G1 X89.242 Y91.954 E2.69780
G1 X90.217 Y91.954 E2.74874
G1 X90.217 Y72.229 E3.77927
G1 X95.383 Y72.229 E4.04917
G1 X95.383 Y94.329 E5.20378
G1 X110.758 Y94.329 E6.00704
G1 X110.758 Y127.771 E7.75417
G1 X89.242 Y127.771 E8.87827
G1 X89.242 Y127.404 E8.89740
G1 X90.057 Y127.404 E8.93998
G1 X89.775 Y127.063 F7200.000
G1 X89.775 Y92.662 E10.56626 F1200.000
G1 X88.900 Y92.662 E10.60763
G1 X88.900 Y91.612 E10.65727
G1 X89.875 Y91.612 E10.70336
G1 X89.875 Y71.888 E11.63587
G1 X95.725 Y71.888 E11.91244
G1 X95.725 Y93.987 E12.95723
G1 X111.100 Y93.987 E13.68409
G1 X111.100 Y128.113 E15.29737
G1 X88.900 Y128.113 E16.34689
G1 X88.900 Y127.063 E16.39653
G1 X89.715 Y127.063 E16.43506
G1 X90.175 Y127.063 F7200.000
G1 X90.457 Y124.534 F7200.000
G1 X90.457 Y120.391 E16.91324 F1200.000
G1 X90.326 Y119.705 F7200.000
G1 X93.167 Y116.863 E17.12433 F1200.000
G1 X92.657 Y116.863 E17.15115
G1 X90.326 Y119.194 E17.32431
G1 X90.326 Y118.683 E17.35114
G1 X92.146 Y116.863 E17.48636
G1 X91.635 Y116.863 F7200.000
G1 X90.326 Y118.173 E17.58365 F1200.000
G1 X90.326 Y117.662 E17.61047
G1 X90.945 Y117.043 E17.65649
G1 X93.243 Y120.362 F7200.000
G1 X95.949 Y117.656 E17.85752 F1200.000
G1 X95.949 Y117.145 E17.88435
G1 X92.733 Y120.362 E18.12332
G1 X92.222 Y120.362 E18.15014
G1 X95.949 Y116.635 E18.42705
G1 X95.949 Y116.124 E18.45387
G1 X91.711 Y120.362 E18.76871
G1 X91.201 Y120.362 E18.79554
G1 X95.949 Y115.613 E19.14831
G1 X95.949 Y115.103 E19.17513
G1 X90.870 Y120.182 E19.55251
G1 X90.363 Y120.179 E19.57916
G1 X95.949 Y114.592 E19.99421
G1 X95.949 Y114.082 E20.02104
G1 X93.591 Y116.440 E20.19623
G1 X93.591 Y115.929 E20.22306
G1 X95.949 Y113.571 E20.39826
G1 X95.949 Y113.060 E20.42508
G1 X93.591 Y115.418 E20.60028
G1 X93.591 Y114.908 E20.62710
G1 X95.949 Y112.550 E20.80230
G1 X95.949 Y112.039 E20.82912
G1 X93.591 Y114.397 E21.00432
G1 X93.591 Y113.887 E21.03114
G1 X95.949 Y111.529 E21.20634
G1 X95.949 Y111.018 E21.23317
G1 X93.591 Y113.376 E21.40836
G1 X93.591 Y112.866 E21.43519
G1 X95.949 Y110.507 E21.61039
G1 X95.949 Y109.997 E21.63721
G1 X93.284 Y112.662 E21.83518
G1 X92.774 Y112.662 E21.86201
G1 X95.949 Y109.486 E22.09792
G1 X95.949 Y108.976 E22.12474
G1 X92.263 Y112.662 E22.39858
G1 X91.753 Y112.662 E22.42541
G1 X95.949 Y108.465 E22.73719
G1 X95.949 Y107.955 E22.76401
G1 X91.242 Y112.662 E23.11372
G1 X90.911 Y112.482 E23.13351
G1 X95.949 Y107.444 E23.50782
G1 X95.949 Y106.933 E23.53465
G1 X90.400 Y112.482 E23.94689
G1 X90.326 Y112.046 E23.97014
G1 X95.949 Y106.423 E24.38792
G1 X95.949 Y105.912 E24.41474
G1 X90.326 Y111.535 E24.83252
G1 X90.326 Y111.025 E24.85934
G1 X93.237 Y108.113 E25.07564
G1 X93.591 Y107.760 F7200.000
G1 X95.949 Y105.402 E25.25083 F1200.000
G1 X95.949 Y104.891 E25.27766
G1 X93.591 Y107.249 E25.45286
G1 X93.591 Y106.739 E25.47968
G1 X95.949 Y104.380 E25.65488
G1 X95.949 Y103.870 E25.68170
G1 X93.591 Y106.228 E25.85690
G1 X93.591 Y105.717 E25.88372
G1 X95.949 Y103.359 E26.05892
G1 X95.949 Y102.849 E26.08574
G1 X93.591 Y105.207 E26.26094
G1 X93.591 Y104.696 E26.28777
G1 X95.949 Y102.338 E26.46296
G1 X95.949 Y101.828 E26.48979
G1 X93.591 Y104.186 E26.66499
G1 X93.354 Y103.912 F7200.000
G1 X95.949 Y101.317 E26.85776 F1200.000
G1 X95.949 Y100.806 E26.88458
G1 X92.844 Y103.912 E27.11528
