; generated by Slic3r 1.2.9 on 2017-08-12 at 21:33:51

; external perimeters extrusion width = 0.40mm
; perimeters extrusion width = 0.67mm
; infill extrusion width = 0.67mm
; solid infill extrusion width = 0.67mm
; top infill extrusion width = 0.67mm

M107
M115 U3.0.12 ; tell printer latest fw version
M83  ; extruder relative mode
M104 S215 ; set extruder temp
M140 S55 ; set bed temp
M190 S55 ; wait for bed temp
M109 S215 ; wait for extruder temp
G28 W ; home all without mesh bed level
G80 ; mesh bed leveling
G1 Y-3.0 F1000.0 ; go outside pritn area
G1 X60.0 E9.0  F1000.0 ; intro line
G1 X100.0 E12.5  F1000.0 ; intro line
G21 ; set units to millimeters
G90 ; use absolute coordinates
M82 ; use absolute distances for extrusion
G92 E0
G1 Z0.400 F7200.000
G1 E-0.80000 F2400.00000
G92 E0
G1 Z0.900 F7200.000
G1 X109.720 Y72.157 F7200.000
G1 Z0.400 F7200.000
G1 E0.80000 F2400.00000
G1 X111.547 Y70.746 E1.07422 F1800.000
G1 X114.675 Y69.973 E1.45685
G1 X120.925 Y69.973 E2.19914
G1 X123.200 Y70.370 E2.47336
G1 X125.205 Y71.514 E2.74759 F1800.000
G1 X126.437 Y72.853 E2.96361
G1 X141.812 Y94.953 E6.16102
G1 X142.785 Y97.047 E6.43524
G1 X143.014 Y98.787 E6.64374
G1 X143.014 Y133.313 E10.74411
G1 X142.617 Y135.587 E11.01833
G1 X141.473 Y137.593 E11.29256
G1 X139.717 Y139.092 E11.56678
G1 X137.557 Y139.908 E11.84101
G1 X136.300 Y140.027 E11.99097
G1 X113.700 Y140.027 E14.67507
G1 X111.425 Y139.630 E14.94929
G1 X109.420 Y138.486 E15.22352
G1 X107.920 Y136.730 E15.49774
G1 X107.105 Y134.570 E15.77197
G1 X106.986 Y133.313 E15.92193
G1 X106.994 Y96.081 E20.34374
G1 X107.969 Y76.356 E22.68924
G1 X108.478 Y74.104 E22.96346
G1 X109.687 Y72.208 E23.23056
G1 F5760
G1 X111.197 Y71.022 E22.47056
G1 E22.43056 F2400.00000
G92 E0
G1 Z0.900 F7200.000
G1 X134.700 Y126.712 F7200.000
G1 Z0.400 F7200.000
G1 E0.80000 F2400.00000
G1 X130.575 Y126.712 E1.28991 F1800.000
G1 X130.575 Y131.362 E1.84216
G1 X125.425 Y131.362 E2.45380
G1 X125.425 Y126.712 E3.00606
G1 X121.400 Y126.712 E3.48409
G1 X121.400 Y129.762 E3.84633
G1 X119.100 Y129.762 E4.11949
G1 X119.100 Y126.262 E4.53516
G1 X121.300 Y126.262 E4.79645
G1 X121.300 Y103.012 E7.55774
G1 X134.700 Y103.012 E9.14919
G1 X134.700 Y126.652 E11.95680
G1 X134.700 Y127.112 F7200.000
G1 F5760
G1 X132.780 Y126.680 E11.19680
G1 E11.15680 F2400.00000
G92 E0
G1 Z0.900 F7200.000
G1 X124.825 Y127.312 F7200.000
G1 X123.369 Y130.857 F7200.000
G1 X124.475 Y131.962 F7200.000
G1 X131.525 Y131.962 F7200.000
G1 X135.300 Y127.313 F7200.000
G1 X135.300 Y102.413 F7200.000
G1 X120.700 Y102.413 F7200.000
G1 X118.840 Y115.223 F7200.000
G1 X119.770 Y122.112 F7200.000
G1 X118.840 Y123.613 F7200.000
G1 X118.840 Y125.113 F7200.000
G1 X118.954 Y124.998 F7200.000
G1 Z0.400 F7200.000
G1 E0.80000 F2400.00000
G1 X115.689 Y124.998 E1.18777 F1800.000
G1 X115.689 Y122.227 E1.51695
G1 X118.954 Y122.227 E1.90472
G1 X118.954 Y117.298 E2.49003
G1 X115.689 Y117.298 E2.87780
G1 X115.689 Y113.477 E3.33168
G1 X118.954 Y113.477 E3.71945
G1 X118.954 Y103.648 E4.88671
G1 X115.689 Y103.648 E5.27448
G1 X115.689 Y97.527 E6.00152
G1 X115.789 Y97.527 E6.01340
G1 X115.789 Y77.802 E8.35604
G1 X119.811 Y77.802 E8.83368
G1 X119.811 Y99.902 E11.45839
G1 X135.186 Y99.902 E13.28440
G1 X135.186 Y102.298 E13.56904
G1 X120.586 Y102.298 E15.30301
G1 X120.586 Y125.548 E18.06431
G1 X118.954 Y125.548 E18.25809
G1 X118.954 Y125.058 E18.31629
G1 X118.240 Y107.862 F7200.000
G1 X115.940 Y107.862 E18.58945 F1800.000
G1 X115.940 Y104.362 E19.00513
G1 X118.240 Y104.362 E19.27829
G1 X118.240 Y107.802 E19.68684
G1 X118.240 Y108.262 F7200.000
G1 X118.240 Y109.262 F7200.000
G1 X118.240 Y112.762 E20.10252 F1800.000
G1 X115.940 Y112.762 E20.37568
G1 X115.940 Y109.262 E20.79135
G1 X118.180 Y109.262 E21.05739
G1 X118.640 Y109.262 F7200.000
G1 X118.240 Y118.012 F7200.000
G1 X118.240 Y121.512 E21.47307 F1800.000
G1 X115.940 Y121.512 E21.74623
G1 X115.940 Y118.012 E22.16190
G1 X118.180 Y118.012 E22.42794
G1 X118.640 Y118.012 F7200.000
G1 X118.240 Y125.713 F7200.000
G1 X118.240 Y129.212 E22.84362 F1800.000
G1 X115.940 Y129.212 E23.11677
G1 X115.940 Y125.713 E23.53245
G1 X118.180 Y125.713 E23.79849
G1 X118.640 Y125.713 F7200.000
G1 X118.386 Y130.477 F7200.000
G1 X122.114 Y130.477 E24.24128 F1800.000
G1 X122.114 Y127.427 E24.60352
G1 X124.711 Y127.427 E24.91191
G1 X124.711 Y132.198 E25.47862
G1 X115.689 Y132.198 E26.55008
G1 X115.689 Y129.927 E26.81988
G1 X118.386 Y129.927 E27.14015
G1 X118.386 Y130.417 E27.19835
G1 X131.289 Y132.198 F7200.000
G1 X131.289 Y127.427 E27.76505 F1800.000
G1 X135.186 Y127.427 E28.22785
G1 X135.186 Y132.198 E28.79455
G1 X131.349 Y132.198 E29.25022
G1 X114.975 Y132.262 F7200.000
G1 X114.975 Y97.463 E33.38325 F1800.000
G1 X114.100 Y97.463 E33.48717
G1 X114.100 Y96.812 E33.56436
G1 X115.075 Y96.812 E33.68016
G1 X115.075 Y77.087 E36.02280
G1 X120.525 Y77.087 E36.67007
G1 X120.525 Y99.187 E39.29478
G1 X135.900 Y99.187 E41.12080
G1 X135.900 Y132.912 E45.12615
G1 X114.100 Y132.912 E47.71524
G1 X114.100 Y132.262 E47.79243
G1 X114.915 Y132.262 E47.88923
G1 X115.375 Y132.262 F7200.000
G1 X116.125 Y131.420 F7200.000
G1 X116.468 Y131.763 E47.95149 F1800.000
G1 X117.556 Y131.760 E48.09123
G1 X116.162 Y130.365 E48.34440
G1 X117.250 Y130.362 E48.48414
G1 X117.593 Y130.705 E48.54641
G1 X118.029 Y131.337 F7200.000
G1 X122.471 Y131.337 E49.66504 F1800.000
G1 X122.907 Y131.420 F7200.000
G1 X123.250 Y131.763 E49.73040 F1800.000
G1 X124.275 Y131.643 E49.86953
G1 X122.907 Y130.274 E50.13031
G1 X122.550 Y128.771 E50.33845
G1 X124.275 Y130.497 E50.66726
G1 X124.275 Y129.351 E50.82165
G1 X122.787 Y127.862 E51.10534
G1 X123.932 Y127.862 E51.25972
G1 X124.275 Y128.205 E51.32508
G1 X125.068 Y132.137 F7200.000
G1 X130.932 Y132.137 E52.80170 F1800.000
G1 X131.725 Y131.420 F7200.000
G1 X132.068 Y131.763 E52.86103 F1800.000
G1 X133.108 Y131.763 E52.98823
G1 X131.725 Y130.380 E53.22744
G1 X131.725 Y129.340 E53.35464
G1 X134.148 Y131.763 E53.77374
G1 X134.750 Y131.325 E53.86481
G1 X131.725 Y128.300 E54.38813
G1 X132.327 Y127.862 E54.47920
G1 X134.750 Y130.285 E54.89830
G1 X134.750 Y129.245 E55.02550
G1 X133.367 Y127.862 E55.26472
G1 X134.407 Y127.862 E55.39192
G1 X134.750 Y128.205 E55.45124
G1 X135.300 Y127.070 F7200.000
G1 X135.300 Y102.655 E61.59886 F1800.000
G1 X119.770 Y103.291 F7200.000
G1 X119.770 Y113.834 E64.25351 F1800.000
G1 X120.150 Y114.612 F7200.000
G1 X119.807 Y114.269 E64.32120 F1800.000
G1 X118.621 Y114.269 E64.48678
G1 X120.150 Y115.799 E64.78864
G1 X119.671 Y116.506 E64.90785
G1 X117.077 Y113.912 E65.41967
G1 X116.125 Y114.147 E65.55652
G1 X118.534 Y116.556 E66.03207
G1 X117.654 Y116.863 E66.16212
G1 X116.125 Y115.333 E66.46398
G1 X116.125 Y116.520 E66.62957
G1 X116.468 Y116.863 E66.69725
G1 X115.457 Y117.655 F7200.000
G1 X115.457 Y121.870 E67.19775 F1800.000
G1 X116.125 Y124.220 F7200.000
G1 X116.468 Y124.563 E67.26738 F1800.000
G1 X117.688 Y124.563 E67.44264
G1 X116.125 Y122.999 E67.76012
G1 X117.009 Y122.662 E67.89592
G1 X118.909 Y124.563 E68.28179
G1 X120.150 Y124.583 E68.45998
G1 X118.587 Y123.019 E68.77746
G1 X119.807 Y123.019 E68.95272
G1 X120.150 Y123.362 E69.02235
G1 X118.534 Y122.967 F7200.000
G1 X118.229 Y122.662 E69.08428 F1800.000
G1 X119.770 Y122.584 F7200.000
G1 X119.770 Y116.941 E70.50508 F1800.000
G1 X115.457 Y113.120 F7200.000
G1 X115.457 Y109.362 E70.95129 F1800.000
G1 X115.332 Y108.562 F7200.000
G1 X118.597 Y108.562 E71.77344 F1800.000
G1 X115.457 Y107.762 F7200.000
G1 X115.457 Y104.005 E72.21965 F1800.000
G1 X116.468 Y103.213 F7200.000
G1 X116.125 Y102.870 E72.27783 F1800.000
G1 X116.125 Y101.850 E72.40017
G1 X117.488 Y103.213 E72.63137
G1 X118.508 Y103.213 E72.75372
G1 X116.125 Y100.830 E73.15795
G1 X116.125 Y99.810 E73.28029
G1 X119.171 Y102.856 E73.79697
G1 X120.150 Y102.815 E73.91458
G1 X116.125 Y98.790 E74.59745
G1 X116.225 Y97.870 E74.70845
G1 X120.218 Y101.863 E75.38578
G1 X134.750 Y101.095 F7200.000
G1 X133.992 Y100.337 E75.51437 F1800.000
G1 X132.972 Y100.337 E75.63672
G1 X134.498 Y101.863 E75.89551
G1 X133.478 Y101.863 E76.01786
G1 X131.952 Y100.337 E76.27665
G1 X130.932 Y100.337 E76.39900
G1 X132.458 Y101.863 E76.65779
G1 X131.438 Y101.863 E76.78013
G1 X129.912 Y100.337 E77.03893
G1 X128.892 Y100.337 E77.16127
G1 X130.418 Y101.863 E77.42007
G1 X129.398 Y101.863 E77.54241
G1 X127.872 Y100.337 E77.80120
G1 X126.852 Y100.337 E77.92355
G1 X128.378 Y101.863 E78.18234
G1 X127.358 Y101.863 E78.30469
G1 X125.832 Y100.337 E78.56348
G1 X124.812 Y100.337 E78.68583
G1 X126.338 Y101.863 E78.94462
G1 X125.318 Y101.863 E79.06697
G1 X123.792 Y100.337 E79.32576
G1 X122.772 Y100.337 E79.44810
G1 X124.298 Y101.863 E79.70690
G1 X123.278 Y101.863 E79.82924
G1 X121.752 Y100.337 E80.08804
G1 X120.732 Y100.337 E80.21038
G1 X122.258 Y101.863 E80.46918
G1 X121.238 Y101.863 E80.59152
G1 X116.225 Y96.850 E81.44188
G1 X116.225 Y95.830 E81.56422
G1 X119.375 Y98.980 E82.09866
G1 X119.375 Y97.960 E82.22101
G1 X116.225 Y94.810 E82.75545
G1 X116.225 Y93.790 E82.87779
G1 X119.375 Y96.940 E83.41223
G1 X119.375 Y95.920 E83.53458
G1 X116.225 Y92.770 E84.06902
G1 X116.225 Y91.750 E84.19137
G1 X119.375 Y94.900 E84.72580
G1 X119.375 Y93.880 E84.84815
G1 X116.225 Y90.730 E85.38259
G1 X116.225 Y89.710 E85.50494
G1 X119.375 Y92.860 E86.03938
G1 X119.375 Y91.840 E86.16172
G1 X116.225 Y88.690 E86.69616
G1 X116.225 Y87.670 E86.81851
G1 X119.375 Y90.820 E87.35295
G1 X119.375 Y89.800 E87.47529
G1 X116.225 Y86.650 E88.00973
G1 X116.225 Y85.630 E88.13208
G1 X119.375 Y88.780 E88.66652
G1 X119.375 Y87.760 E88.78886
G1 X116.225 Y84.610 E89.32330
G1 X116.225 Y83.590 E89.44565
G1 X119.375 Y86.740 E89.98009
G1 X119.375 Y85.720 E90.10243
G1 X116.225 Y82.570 E90.63687
G1 X116.225 Y81.550 E90.75922
G1 X119.375 Y84.700 E91.29366
G1 X119.375 Y83.680 E91.41600
G1 X116.225 Y80.530 E91.95044
G1 X116.225 Y79.510 E92.07279
G1 X119.375 Y82.660 E92.60723
G1 X119.375 Y81.640 E92.72957
G1 X116.225 Y78.490 E93.26401
G1 X116.992 Y78.237 E93.36094
G1 X119.375 Y80.620 E93.76516
G1 X119.375 Y79.600 E93.88751
G1 X118.012 Y78.237 E94.11871
G1 X119.032 Y78.237 E94.24106
G1 X119.375 Y78.580 E94.29924
G1 X117.800 Y97.412 F7200.000
G1 X117.750 Y99.787 F7200.000
G1 X118.019 Y101.318 F7200.000
G1 X115.575 Y103.763 F7200.000
G1 X115.457 Y125.355 F7200.000
G1 X115.457 Y129.570 E94.79973 F1800.000
M104 S210 ; set temperature
G1 Z0.600 F7200.000
G1 X115.647 Y129.505 F7200.000
G1 X115.647 Y125.420 E95.01318 F2400.000
G1 X118.533 Y125.420 E95.16392
G1 X118.533 Y125.970 E95.19266
G1 X121.007 Y125.970 E95.32194
G1 X121.007 Y102.720 E96.53664
G1 X134.993 Y102.720 E97.26730
G1 X134.993 Y127.005 E98.53609
G1 X130.868 Y127.005 E98.75160
G1 X130.868 Y131.655 E98.99454
G1 X125.132 Y131.655 E99.29419
G1 X125.132 Y127.005 E99.53712
G1 X121.693 Y127.005 E99.71683
G1 X121.693 Y130.055 E99.87617
G1 X118.807 Y130.055 E100.02692
G1 X118.807 Y129.505 E100.05565
G1 X115.707 Y129.505 E100.21761
G1 X118.500 Y129.812 F7200.000
G1 X118.500 Y131.338 F7200.000
G1 X123.412 Y130.362 F7200.000
G1 X123.412 Y128.725 F7200.000
G1 X122.000 Y127.312 F7200.000
G1 X121.500 Y126.512 F7200.000
G1 X121.500 Y103.212 E100.90942 F1200.000
G1 X134.500 Y103.212 E101.29541
G1 X134.500 Y126.512 E101.98722
G1 X130.375 Y126.512 E102.10969
G1 X130.375 Y131.162 E102.24776
G1 X125.625 Y131.162 E102.38879
G1 X125.625 Y126.512 E102.52685
G1 X121.560 Y126.512 E102.64755
G1 X121.100 Y126.512 F7200.000
G1 X118.040 Y125.912 F7200.000
G1 X118.040 Y129.012 E102.73959 F900.000
G1 X116.140 Y129.012 E102.79601
G1 X116.140 Y125.912 E102.88805
G1 X117.980 Y125.912 E102.94268
G1 X118.440 Y125.912 F7200.000
G1 X119.300 Y126.462 F7200.000
G1 X121.200 Y126.462 E102.99909 F900.000
G1 X121.200 Y129.563 E103.09114
G1 X119.300 Y129.563 E103.14755
G1 X119.300 Y126.522 E103.23781
G1 X119.300 Y126.062 F7200.000
G1 X118.533 Y108.155 F7200.000
G1 X115.647 Y108.155 E103.38856 F900.000
G1 X115.647 Y104.070 E103.60200
G1 X118.533 Y104.070 E103.75275
G1 X118.533 Y108.095 E103.96306
G1 X118.040 Y107.662 F7200.000
G1 X116.140 Y107.662 E104.01947 F900.000
G1 X116.140 Y104.562 E104.11151
G1 X118.040 Y104.562 E104.16793
G1 X118.040 Y107.602 E104.25819
G1 X118.040 Y108.063 F7200.000
G1 X118.533 Y108.970 F7200.000
G1 X118.533 Y113.055 E104.47163 F900.000
G1 X115.647 Y113.055 E104.62238
G1 X115.647 Y108.970 E104.83582
G1 X118.473 Y108.970 E104.98343
G1 X118.040 Y109.462 F7200.000
G1 X118.040 Y112.563 E105.07547 F900.000
G1 X116.140 Y112.563 E105.13189
G1 X116.140 Y109.462 E105.22393
G1 X117.980 Y109.462 E105.27856
G1 X118.440 Y109.462 F7200.000
G1 X118.533 Y117.720 F7200.000
G1 X118.533 Y121.805 E105.49200 F900.000
G1 X115.647 Y121.805 E105.64275
G1 X115.647 Y117.720 E105.85619
G1 X118.473 Y117.720 E106.00381
G1 X118.040 Y118.212 F7200.000
G1 X118.040 Y121.313 E106.09585 F900.000
G1 X116.140 Y121.313 E106.15226
G1 X116.140 Y118.212 E106.24431
G1 X117.980 Y118.212 E106.29894
G1 X118.440 Y118.212 F7200.000
G1 X120.232 Y99.480 F7200.000
G1 X135.607 Y99.480 E107.10220 F2400.000
G1 X135.607 Y132.620 E108.83358
G1 X115.268 Y132.620 E109.89622
G1 X115.268 Y97.105 E111.75168
G1 X115.368 Y97.105 E111.75690
G1 X115.368 Y77.380 E112.78743
G1 X120.232 Y77.380 E113.04158
G1 X120.232 Y99.420 E114.19306
G1 X120.725 Y98.987 F7200.000
G1 X136.100 Y98.987 E114.64956 F1200.000
G1 X136.100 Y133.112 E115.66278
G1 X113.900 Y133.112 E116.32192
G1 X113.900 Y132.063 E116.35310
G1 X114.775 Y132.063 E116.37908
G1 X114.775 Y97.662 E117.40046
G1 X113.900 Y97.662 E117.42644
G1 X113.900 Y96.612 E117.45762
G1 X114.875 Y96.612 E117.48657
G1 X114.875 Y76.888 E118.07223
G1 X120.725 Y76.888 E118.24592
G1 X120.725 Y98.927 E118.90032
G1 X120.725 Y99.387 F7200.000
G1 X115.021 Y97.137 F7200.000
G1 X114.146 Y97.137 E118.94603 F1200.000
G1 F5760
G1 X115.021 Y97.137 E118.59968
G1 E118.14603 F2400.00000
G92 E0
G1 Z1.100 F7200.000
G1 X115.575 Y103.763 F7200.000
G1 X119.280 Y102.413 F7200.000
G1 X119.767 Y108.562 F7200.000
G1 X118.840 Y108.562 F7200.000
G1 X115.675 Y108.562 F7200.000
G1 X115.582 Y108.562 F7200.000
G1 Z0.600 F7200.000
G1 E0.80000 F2400.00000
G1 X118.847 Y108.562 E0.97058 F1200.000
G1 X118.913 Y112.625 F7200.000
G1 X120.627 Y110.912 E1.09851 F1200.000
G1 X120.627 Y110.014 E1.14594
G1 X118.913 Y111.727 E1.27388
G1 X118.913 Y110.829 E1.32131
G1 X120.627 Y109.116 E1.44925
G1 X120.627 Y108.217 E1.49668
G1 X118.913 Y109.931 E1.62461
G1 X119.228 Y108.718 E1.69074
G1 X120.627 Y107.319 E1.79522
G1 X120.627 Y106.421 E1.84265
G1 X119.202 Y107.846 E1.94907
G1 X118.913 Y107.236 E1.98469
G1 X120.627 Y105.523 E2.11263
G1 X120.627 Y104.625 E2.16006
G1 X118.913 Y106.338 E2.28799
G1 X118.913 Y105.440 E2.33542
G1 X120.627 Y103.727 E2.46336
G1 X120.627 Y102.829 E2.51079
G1 X118.913 Y104.542 E2.63872
G1 X118.868 Y103.689 E2.68381
G1 X122.696 Y99.861 E2.96970
G1 X121.798 Y99.861 E3.01713
G1 X117.970 Y103.689 E3.30302
G1 X117.072 Y103.689 E3.35045
G1 X120.900 Y99.861 E3.63634
G1 X120.002 Y99.861 E3.68377
G1 X116.173 Y103.689 E3.96965
G1 X115.648 Y103.316 E4.00367
G1 X119.852 Y99.113 E4.31756
G1 X119.852 Y98.215 E4.36499
G1 X115.648 Y102.418 E4.67889
G1 X115.648 Y101.520 E4.72632
G1 X119.852 Y97.316 E5.04021
G1 X119.852 Y96.418 E5.08764
G1 X115.648 Y100.621 E5.40153
G1 X115.648 Y99.723 E5.44896
G1 X119.852 Y95.520 E5.76286
G1 X119.852 Y94.622 E5.81029
G1 X115.648 Y98.825 E6.12418
G1 X115.648 Y97.927 E6.17161
G1 X119.852 Y93.724 E6.48550
G1 X119.852 Y92.826 E6.53293
G1 X115.748 Y96.929 E6.83936
G1 X115.748 Y96.031 E6.88679
G1 X119.852 Y91.928 E7.19321
G1 X119.852 Y91.029 E7.24064
G1 X115.748 Y95.132 E7.54707
G1 X115.748 Y94.234 E7.59450
G1 X119.852 Y90.131 E7.90092
G1 X119.852 Y89.233 E7.94835
G1 X115.748 Y93.336 E8.25478
G1 X115.748 Y92.438 E8.30221
G1 X119.852 Y88.335 E8.60863
G1 X119.852 Y87.437 E8.65607
G1 X115.748 Y91.540 E8.96249
G1 X115.748 Y90.642 E9.00992
G1 X119.852 Y86.539 E9.31635
G1 X119.852 Y85.640 E9.36378
G1 X115.748 Y89.744 E9.67020
G1 X115.748 Y88.845 E9.71763
G1 X119.852 Y84.742 E10.02406
G1 X119.852 Y83.844 E10.07149
G1 X115.748 Y87.947 E10.37791
G1 X115.748 Y87.049 E10.42534
G1 X119.852 Y82.946 E10.73177
G1 X119.852 Y82.048 E10.77920
G1 X115.748 Y86.151 E11.08562
G1 X115.748 Y85.253 E11.13305
G1 X119.852 Y81.150 E11.43948
