; generated by Slic3r 1.2.9 on 2017-08-13 at 11:10:07

; external perimeters extrusion width = 0.40mm
; perimeters extrusion width = 0.68mm
; infill extrusion width = 0.87mm
; solid infill extrusion width = 0.68mm
; top infill extrusion width = 0.68mm

M107
M115 U3.0.12 ; tell printer latest fw version
M83  ; extruder relative mode
M104 S215 ; set extruder temp
M140 S55 ; set bed temp
M190 S55 ; wait for bed temp
M109 S215 ; wait for extruder temp
G28 W ; home all without mesh bed level
G80 ; mesh bed leveling
G1 Y-3.0 F1000.0 ; go outside pritn area
G1 X60.0 E9.0  F1000.0 ; intro line
G1 X100.0 E12.5  F1000.0 ; intro line
G21 ; set units to millimeters
G90 ; use absolute coordinates
M82 ; use absolute distances for extrusion
G92 E0
G1 Z0.400 F7200.000
G1 E-0.80000 F2400.00000
G92 E0
G1 Z0.900 F7200.000
G1 X94.514 Y69.195 F7200.000
G1 Z0.400 F7200.000
G1 E0.80000 F2400.00000
G1 X96.270 Y67.695 E1.07422 F1800.000
G1 X98.430 Y66.880 E1.34845
G1 X99.688 Y66.761 E1.49842
G1 X123.438 Y66.761 E4.31909
G1 X126.084 Y67.304 E4.63993
G1 X152.959 Y78.829 E8.11285 F1800.000
G1 X154.893 Y80.091 E8.38708
G1 X156.285 Y81.933 E8.66130
G1 X157.027 Y85.000 E9.03610
G1 X157.027 Y125.000 E13.78670
G1 X156.630 Y127.275 E14.06093
G1 X155.486 Y129.280 E14.33515
G1 X152.959 Y131.171 E14.70995
G1 X126.084 Y142.696 E18.18287
G1 X123.438 Y143.239 E18.50371
G1 X99.688 Y143.239 E21.32439
G1 X97.413 Y142.842 E21.59861
G1 X95.407 Y141.698 E21.87284
G1 X93.908 Y139.942 E22.14706
G1 X93.092 Y137.782 E22.42129
G1 X92.973 Y136.525 E22.57125
G1 X92.973 Y73.475 E30.05940
G1 X93.370 Y71.200 E30.33362
G1 X94.485 Y69.247 E30.60072
G1 F5760
G1 X95.934 Y67.988 E29.84072
G1 E29.80072 F2400.00000
G92 E0
G1 Z0.900 F7200.000
G1 X144.062 Y124.150 F7200.000
G1 Z0.400 F7200.000
G1 E0.80000 F2400.00000
G1 X140.563 Y124.150 E1.21568 F1800.000
G1 X140.563 Y121.850 E1.48884
G1 X144.062 Y121.850 E1.90452
G1 X144.062 Y124.090 E2.17055
G1 X144.062 Y124.550 F7200.000
G1 X137.062 Y124.150 F7200.000
G1 X133.563 Y124.150 E2.58623 F1800.000
G1 X133.563 Y121.850 E2.85939
G1 X137.062 Y121.850 E3.27507
G1 X137.062 Y124.090 E3.54110
G1 X137.062 Y124.550 F7200.000
G1 X143.162 Y116.750 F7200.000
G1 X143.162 Y113.250 E3.95678 F1800.000
G1 X145.462 Y113.250 E4.22994
G1 X145.462 Y116.750 E4.64562
G1 X143.223 Y116.750 E4.91165
G1 X142.762 Y116.750 F7200.000
G1 X146.162 Y116.250 F7200.000
G1 X148.462 Y116.250 E5.18481 F1800.000
G1 X148.462 Y119.750 E5.60049
G1 X146.162 Y119.750 E5.87365
G1 X146.162 Y116.310 E6.28220
G1 X146.162 Y115.850 F7200.000
G1 X146.891 Y114.822 F7200.000
G1 X146.891 Y111.178 E6.71490 F1800.000
G1 X148.484 Y111.178 E6.90414
G1 X148.484 Y114.822 E7.33684
G1 X146.951 Y114.822 E7.51896
G1 X146.177 Y115.536 F7200.000
G1 X146.177 Y110.464 E8.12129 F1800.000
G1 X149.198 Y110.464 E8.48016
G1 X149.198 Y115.536 E9.08250
G1 X146.237 Y115.536 E9.43425
G1 X145.462 Y111.750 F7200.000
G1 X143.162 Y111.750 E9.70741 F1800.000
G1 X143.162 Y108.250 E10.12309
G1 X145.462 Y108.250 E10.39625
G1 X145.462 Y111.690 E10.80480
G1 X145.462 Y112.150 F7200.000
G1 X146.162 Y109.750 F7200.000
G1 X146.162 Y106.250 E11.22048 F1800.000
G1 X148.462 Y106.250 E11.49364
G1 X148.462 Y109.750 E11.90931
G1 X146.223 Y109.750 E12.17535
G1 X145.762 Y109.750 F7200.000
G1 X146.162 Y99.750 F7200.000
G1 X146.162 Y96.250 E12.59103 F1800.000
G1 X148.462 Y96.250 E12.86419
G1 X148.462 Y99.750 E13.27986
G1 X146.223 Y99.750 E13.54590
G1 X145.762 Y99.750 F7200.000
G1 X145.563 Y97.350 F7200.000
G1 X145.337 Y102.111 F7200.000
G1 X146.662 Y103.000 F7200.000
G1 X149.062 Y100.600 F7200.000
G1 X149.188 Y95.650 F7200.000
G1 X149.062 Y95.400 F7200.000
G1 X147.688 Y94.025 F7200.000
G1 X146.891 Y94.822 F7200.000
G1 X146.891 Y91.178 E13.97860 F1800.000
G1 X148.484 Y91.178 E14.16784
G1 X148.484 Y94.822 E14.60054
G1 X146.951 Y94.822 E14.78265
G1 X146.177 Y95.536 F7200.000
G1 X146.177 Y90.464 E15.38499 F1800.000
G1 X149.198 Y90.464 E15.74386
G1 X149.198 Y95.536 E16.34620
G1 X146.237 Y95.536 E16.69795
G1 X145.462 Y96.750 F7200.000
G1 X143.162 Y96.750 E16.97111 F1800.000
G1 X143.162 Y93.250 E17.38679
G1 X145.462 Y93.250 E17.65995
G1 X145.462 Y96.690 E18.06850
G1 X145.462 Y97.150 F7200.000
G1 X145.462 Y92.750 F7200.000
G1 X143.162 Y92.750 E18.34166 F1800.000
G1 X143.162 Y89.250 E18.75734
G1 X145.462 Y89.250 E19.03050
G1 X145.462 Y92.690 E19.43905
G1 X145.462 Y93.150 F7200.000
G1 F5760
G1 X143.543 Y92.740 E18.67905
G1 E18.63905 F2400.00000
G92 E0
G1 Z0.900 F7200.000
G1 X142.563 Y97.350 F7200.000
G1 X144.519 Y104.428 F7200.000
G1 X141.842 Y106.419 F7200.000
G1 X140.188 Y107.650 F7200.000
G1 X140.178 Y112.650 F7200.000
G1 X137.812 Y113.000 F7200.000
G1 X137.812 Y113.650 F7200.000
G1 X137.927 Y113.536 F7200.000
G1 Z0.400 F7200.000
G1 E0.80000 F2400.00000
G1 X137.927 Y118.464 E1.38531 F1800.000
G1 X134.198 Y118.464 E1.82811
G1 X134.198 Y113.536 E2.41342
G1 X137.867 Y113.536 E2.84909
G1 X137.212 Y114.250 F7200.000
G1 X137.212 Y117.750 E3.26477 F1800.000
G1 X134.912 Y117.750 E3.53792
G1 X134.912 Y114.250 E3.95360
G1 X137.152 Y114.250 E4.21964
G1 X137.612 Y114.250 F7200.000
G1 X137.927 Y112.464 F7200.000
G1 X134.198 Y112.464 E4.66243 F1800.000
G1 X134.198 Y107.536 E5.24774
G1 X137.927 Y107.536 E5.69054
G1 X137.927 Y112.404 E6.26872
G1 X137.212 Y111.750 F7200.000
G1 X134.912 Y111.750 E6.54188 F1800.000
G1 X134.912 Y108.250 E6.95756
G1 X137.212 Y108.250 E7.23072
G1 X137.212 Y111.690 E7.63927
G1 X137.212 Y112.150 F7200.000
G1 X139.272 Y105.202 F7200.000
G1 X138.879 Y105.046 E7.68951 F1800.000
G1 X138.509 Y104.842 E7.73971
G1 X138.167 Y104.594 E7.78991
G1 X137.858 Y104.304 E7.84014
G1 X137.589 Y103.979 E7.89034
G1 X137.363 Y103.622 E7.94054
G1 X137.181 Y103.236 E7.99114
G1 X137.049 Y102.820 E8.04302
G1 X136.973 Y102.422 E8.09116
G1 X136.946 Y102.000 E8.14136
G1 X136.973 Y101.578 E8.19157
G1 X137.052 Y101.163 E8.24178
G1 X137.183 Y100.761 E8.29200
G1 X137.363 Y100.378 E8.34219
G1 X137.589 Y100.021 E8.39240
G1 X137.858 Y99.696 E8.44260
G1 X138.167 Y99.406 E8.49283
G1 X138.509 Y99.158 E8.54303
G1 X138.879 Y98.954 E8.59323
G1 X139.272 Y98.798 E8.64346
G1 X139.682 Y98.693 E8.69365
G1 X140.101 Y98.640 E8.74384
G1 X140.524 Y98.640 E8.79409 F1800.000
G1 X140.943 Y98.693 E8.84428
G1 X141.353 Y98.798 E8.89447
G1 X141.746 Y98.954 E8.94470
G1 X142.116 Y99.158 E8.99490
G1 X142.458 Y99.406 E9.04510
G1 X142.767 Y99.696 E9.09533
G1 X143.036 Y100.021 E9.14553
G1 X143.262 Y100.378 E9.19574
G1 X143.439 Y100.754 E9.24505
G1 X143.567 Y101.129 E9.29206
G1 X143.652 Y101.578 E9.34639
G1 X143.679 Y102.000 E9.39660
G1 X143.652 Y102.422 E9.44680
G1 X143.573 Y102.837 E9.49703
G1 X143.442 Y103.239 E9.54723
G1 X143.262 Y103.622 E9.59743
G1 X143.036 Y103.979 E9.64763
G1 X142.767 Y104.304 E9.69783
G1 X142.458 Y104.594 E9.74806
G1 X142.116 Y104.842 E9.79826
G1 X141.746 Y105.046 E9.84846
G1 X141.353 Y105.202 E9.89870
G1 X140.943 Y105.307 E9.94888
G1 X140.524 Y105.360 E9.99907
G1 X140.101 Y105.360 E10.04932
G1 X139.682 Y105.307 E10.09952
G1 X139.330 Y105.217 E10.14257
G1 X139.493 Y104.521 F7200.000
G1 X139.184 Y104.399 E10.18212 F1800.000
G1 X138.892 Y104.238 E10.22166
G1 X138.623 Y104.043 E10.26118
G1 X138.380 Y103.815 E10.30073
G1 X138.168 Y103.558 E10.34026
G1 X137.990 Y103.277 E10.37980
G1 X137.847 Y102.975 E10.41947
G1 X137.742 Y102.644 E10.46067
G1 X137.683 Y102.332 E10.49839
G1 X137.662 Y102.000 E10.53793
G1 X137.683 Y101.668 E10.57746
G1 X137.745 Y101.341 E10.61700
G1 X137.848 Y101.024 E10.65654
G1 X137.990 Y100.723 E10.69606
G1 X138.168 Y100.442 E10.73560
G1 X138.380 Y100.185 E10.77513
G1 X138.623 Y99.957 E10.81468
G1 X138.892 Y99.762 E10.85421
G1 X139.184 Y99.601 E10.89374
G1 X139.493 Y99.479 E10.93329
G1 X139.816 Y99.396 E10.97281
G1 X140.146 Y99.354 E11.01235
G1 X140.479 Y99.354 E11.05190 F1800.000
G1 X140.809 Y99.396 E11.09143
G1 X141.132 Y99.479 E11.13095
G1 X141.441 Y99.601 E11.17050
G1 X141.733 Y99.762 E11.21003
G1 X142.002 Y99.957 E11.24956
G1 X142.245 Y100.185 E11.28911
G1 X142.457 Y100.442 E11.32864
G1 X142.635 Y100.723 E11.36818
G1 X142.776 Y101.022 E11.40739
G1 X142.874 Y101.311 E11.44372
G1 X142.942 Y101.668 E11.48681
G1 X142.963 Y102.000 E11.52635
G1 X142.942 Y102.332 E11.56588
G1 X142.880 Y102.659 E11.60543
G1 X142.777 Y102.976 E11.64496
G1 X142.635 Y103.277 E11.68449
G1 X142.457 Y103.558 E11.72402
G1 X142.245 Y103.815 E11.76355
G1 X142.002 Y104.043 E11.80310
G1 X141.733 Y104.238 E11.84263
G1 X141.441 Y104.399 E11.88216
G1 X141.132 Y104.521 E11.92171
G1 X140.809 Y104.604 E11.96124
G1 X140.479 Y104.646 E12.00077
G1 X140.146 Y104.646 E12.04032
G1 X139.816 Y104.604 E12.07985
G1 X139.552 Y104.536 E12.11225
G1 X139.241 Y104.739 F7200.000
G1 X138.641 Y106.822 F7200.000
G1 X134.141 Y106.822 E12.64669 F1800.000
G1 X134.141 Y99.178 E13.55446
G1 X137.360 Y99.178 E13.93674
G1 X137.010 Y99.601 E14.00185
G1 X136.736 Y100.034 E14.06272
G1 X136.517 Y100.497 E14.12359
G1 X136.359 Y100.985 E14.18448
G1 X136.263 Y101.488 E14.24537
G1 X136.231 Y102.000 E14.30625
G1 X136.263 Y102.512 E14.36712
G1 X136.355 Y102.996 E14.42568
G1 X136.515 Y103.498 E14.48824
G1 X136.736 Y103.966 E14.54976
G1 X137.010 Y104.399 E14.61063
G1 X137.337 Y104.794 E14.67150
G1 X137.711 Y105.145 E14.73241
G1 X138.125 Y105.446 E14.79328
G1 X138.574 Y105.693 E14.85414
G1 X139.051 Y105.882 E14.91507
G1 X139.548 Y106.010 E14.97591
G1 X140.056 Y106.074 E15.03677
G1 X140.569 Y106.074 E15.09772
G1 X141.077 Y106.010 E15.15857
G1 X141.574 Y105.882 E15.21941
G1 X142.051 Y105.693 E15.28034
G1 X142.500 Y105.446 E15.34121
G1 X142.914 Y105.145 E15.40208
G1 X143.288 Y104.794 E15.46299
G1 X143.615 Y104.399 E15.52385
G1 X143.889 Y103.966 E15.58473
G1 X144.108 Y103.503 E15.64560
G1 X144.266 Y103.015 E15.70647
G1 X144.362 Y102.512 E15.76737
G1 X144.394 Y102.000 E15.82825
G1 X144.362 Y101.488 E15.88913
G1 X144.259 Y100.946 E15.95471
G1 X144.103 Y100.486 E16.01238
G1 X143.889 Y100.034 E16.07181
G1 X143.615 Y99.601 E16.13268
G1 X143.288 Y99.206 E16.19355
G1 X142.914 Y98.855 E16.25446
G1 X142.391 Y98.474 E16.33132
G1 X142.487 Y98.178 E16.36830
G1 X144.734 Y98.178 E16.63519
G1 X144.734 Y101.178 E16.99149
G1 X148.484 Y101.178 E17.43686
G1 X148.484 Y104.822 E17.86956
G1 X144.734 Y104.822 E18.31493
G1 X144.734 Y106.822 E18.55246
G1 X141.734 Y106.822 E18.90876
G1 X141.734 Y118.178 E20.25753
G1 X144.734 Y118.178 E20.61383
G1 X144.734 Y120.422 E20.88026
G1 X139.134 Y120.422 E21.54534
G1 X139.134 Y123.172 E21.87195
G1 X138.491 Y123.172 E21.94836
G1 X138.491 Y120.422 E22.27496
G1 X134.141 Y120.422 E22.79159
G1 X134.141 Y119.178 E22.93926
G1 X138.641 Y119.178 E23.47370
G1 X138.641 Y106.882 E24.93411
G1 X135.286 Y103.419 F7200.000
G1 X135.321 Y100.359 F7200.000
G1 X133.813 Y98.350 F7200.000
G1 X133.813 Y88.650 F7200.000
G1 X134.637 Y87.325 F7200.000
G1 X137.812 Y87.325 F7200.000
G1 X138.641 Y87.822 F7200.000
G1 X134.141 Y87.822 E25.46856 F1800.000
G1 X134.141 Y86.828 E25.58653
G1 X144.734 Y86.828 E26.84466
G1 X144.734 Y87.822 E26.96263
G1 X141.734 Y87.822 E27.31893
G1 X141.734 Y98.159 E28.54663
G1 X141.077 Y97.990 E28.62716
G1 X140.569 Y97.926 E28.68801
G1 X140.056 Y97.926 E28.74896
G1 X139.548 Y97.990 E28.80982
G1 X139.051 Y98.118 E28.87066
G1 X138.641 Y98.280 E28.92310
G1 X138.641 Y87.882 E30.15809
G1 X137.927 Y88.536 F7200.000
G1 X137.927 Y98.464 E31.33722 F1800.000
G1 X134.198 Y98.464 E31.78002
G1 X134.198 Y88.536 E32.95916
G1 X137.867 Y88.536 E33.39483
G1 X137.212 Y94.250 F7200.000
G1 X137.212 Y97.750 E33.81050 F1800.000
G1 X134.912 Y97.750 E34.08366
G1 X134.912 Y94.250 E34.49934
G1 X137.152 Y94.250 E34.76537
G1 X137.612 Y94.250 F7200.000
G1 X137.212 Y92.750 F7200.000
G1 X134.912 Y92.750 E35.03853 F1800.000
G1 X134.912 Y89.250 E35.45421
G1 X137.212 Y89.250 E35.72737
G1 X137.212 Y92.690 E36.13592
G1 X137.212 Y93.150 F7200.000
G1 X137.812 Y93.350 F7200.000
G1 X134.313 Y93.500 F7200.000
G1 X133.813 Y98.350 F7200.000
G1 X137.627 Y106.045 F7200.000
G1 X140.188 Y107.650 F7200.000
G1 X140.188 Y117.350 F7200.000
G1 X142.563 Y119.300 F7200.000
G1 X144.662 Y120.350 F7200.000
G1 X145.563 Y121.250 F7200.000
G1 X145.491 Y121.178 F7200.000
G1 X148.484 Y121.178 E36.49143 F1800.000
G1 X148.484 Y123.172 E36.72817
G1 X145.491 Y123.172 E37.08368
G1 X145.491 Y121.238 E37.31330
G1 X144.777 Y121.136 F7200.000
G1 X139.848 Y121.136 E37.89861 F1800.000
G1 X139.848 Y123.886 E38.22522
G1 X137.777 Y123.886 E38.47126
G1 X137.777 Y121.136 E38.79786
G1 X133.427 Y121.136 E39.31449
G1 X133.427 Y86.114 E43.47385
G1 X145.448 Y86.114 E44.90161
G1 X145.448 Y88.536 E45.18922
G1 X142.448 Y88.536 E45.54551
G1 X142.448 Y97.464 E46.60589
G1 X145.448 Y97.464 E46.96218
G1 X145.448 Y100.464 E47.31848
G1 X149.198 Y100.464 E47.76385
G1 X149.198 Y105.536 E48.36619
G1 X145.448 Y105.536 E48.81155
G1 X145.448 Y107.536 E49.04909
G1 X142.448 Y107.536 E49.40538
G1 X142.448 Y117.464 E50.58452
G1 X145.448 Y117.464 E50.94081
G1 X145.448 Y120.464 E51.29711
G1 X149.198 Y120.464 E51.74248
G1 X149.198 Y123.886 E52.14886
G1 X144.777 Y123.886 E52.67400
G1 X144.777 Y121.196 E52.99348
G1 F5760
G1 X142.857 Y121.172 E52.23348
G1 E52.19348 F2400.00000
G92 E0
G1 Z0.900 F7200.000
G1 X140.293 Y118.350 F7200.000
G1 X141.678 Y106.499 F7200.000
G1 X145.812 Y103.258 F7200.000
G1 X144.428 Y100.201 F7200.000
G1 X143.643 Y98.752 F7200.000
G1 X142.673 Y98.403 F7200.000
G1 X142.563 Y98.370 F7200.000
G1 X142.563 Y97.350 F7200.000
G1 X146.162 Y89.750 F7200.000
G1 Z0.400 F7200.000
G1 E0.80000 F2400.00000
G1 X146.162 Y86.250 E1.21568 F1800.000
G1 X148.462 Y86.250 E1.48884
G1 X148.462 Y89.750 E1.90452
G1 X146.223 Y89.750 E2.17055
G1 X145.762 Y89.750 F7200.000
G1 F5760
G1 X146.190 Y87.830 E1.41055
G1 E1.37055 F2400.00000
G92 E0
G1 Z0.900 F7200.000
G1 X149.062 Y86.000 F7200.000
G1 X149.062 Y86.000 F7200.000
G1 X149.188 Y86.125 F7200.000
G1 X149.313 Y86.000 F7200.000
G1 X149.912 Y85.400 F7200.000
G1 Z0.400 F7200.000
G1 E0.80000 F2400.00000
G1 X149.912 Y124.600 E5.45560 F1800.000
G1 X132.712 Y124.600 E7.49836
G1 X132.712 Y85.400 E12.15395
G1 X149.852 Y85.400 E14.18959
G1 X149.713 Y85.746 F7200.000
G1 X149.187 Y85.757 F7200.000
G1 X149.187 Y90.107 E15.28494 F1800.000
G1 X147.687 Y91.535 F7200.000
G1 X147.687 Y94.465 E16.02253 F1800.000
G1 X149.187 Y95.893 F7200.000
G1 X149.187 Y100.107 E17.08367 F1800.000
G1 X144.358 Y100.147 F7200.000
G1 X144.283 Y99.811 E17.12463 F1800.000
G1 X144.121 Y99.253 E17.19358
G1 X143.999 Y98.913 E17.23646
G1 X143.718 Y98.782 E17.27341
G1 X143.133 Y98.552 E17.34795
G1 X139.416 Y97.609 F7200.000
G1 X139.076 Y97.269 E17.40710 F1800.000
G1 X139.076 Y96.221 E17.53624
G1 X140.346 Y97.491 E17.75746
G1 X141.299 Y97.396 E17.87548
G1 X139.076 Y95.173 E18.26278
G1 X139.076 Y94.125 E18.39192
G1 X141.299 Y96.348 E18.77922
G1 X141.299 Y95.300 E18.90837
G1 X139.076 Y93.077 E19.29567
G1 X139.076 Y92.029 E19.42481
G1 X141.299 Y94.252 E19.81211
G1 X141.299 Y93.204 E19.94126
G1 X139.076 Y90.981 E20.32856
G1 X139.076 Y89.933 E20.45770
G1 X141.299 Y92.156 E20.84500
G1 X141.299 Y91.108 E20.97414
G1 X139.076 Y88.885 E21.36144
G1 X139.399 Y88.161 E21.45925
G1 X141.299 Y90.060 E21.79026
G1 X141.299 Y89.012 E21.91940
G1 X139.551 Y87.264 E22.22404
G1 X140.599 Y87.264 E22.35318
G1 X140.942 Y87.607 E22.41296
G1 X141.377 Y87.325 F7200.000
G1 X144.377 Y87.325 E22.76925 F1800.000
G1 X145.805 Y85.825 F7200.000
G1 X148.387 Y85.825 E23.07591 F1800.000
G1 X138.998 Y87.325 F7200.000
G1 X134.498 Y87.325 E23.61036 F1800.000
G1 X134.555 Y93.500 F7200.000
G1 X137.570 Y93.500 E24.36933 F1800.000
G1 X136.348 Y99.952 F7200.000
G1 X136.010 Y99.614 E24.43248 F1800.000
G1 X134.887 Y99.614 E24.58085
G1 X136.020 Y100.747 E24.79249
G1 X135.824 Y101.674 E24.91771
G1 X134.576 Y100.427 E25.15075
G1 X134.576 Y101.550 E25.29913
G1 X135.847 Y102.820 E25.53642
G1 X134.576 Y102.673 E25.70534
G1 X136.488 Y104.585 E26.06251
G1 X136.043 Y106.386 F7200.000
G1 X134.576 Y104.920 E26.33641 F1800.000
G1 X134.576 Y103.797 E26.48478
G1 X137.166 Y106.386 E26.96851
G1 X134.919 Y106.386 F7200.000
G1 X134.576 Y106.043 E27.03258 F1800.000
G1 X133.812 Y107.179 F7200.000
G1 X133.812 Y112.821 E27.70271 F1800.000
G1 X133.841 Y112.879 E27.71035
G1 X134.141 Y113.179 E27.76073
G1 X138.284 Y113.000 F7200.000
G1 X133.962 Y113.000 E28.27395 F1800.000
