; generated by Slic3r 1.2.9 on 2017-08-05 at 13:01:37

; external perimeters extrusion width = 0.40mm
; perimeters extrusion width = 0.43mm
; infill extrusion width = 0.43mm
; solid infill extrusion width = 0.43mm
; top infill extrusion width = 0.43mm

M107
M115 U3.0.12 ; tell printer latest fw version
M83  ; extruder relative mode
M104 S215 ; set extruder temp
M140 S55 ; set bed temp
M190 S55 ; wait for bed temp
M109 S215 ; wait for extruder temp
G28 W ; home all without mesh bed level
G80 ; mesh bed leveling
G1 Y-3.0 F1000.0 ; go outside pritn area
G1 X60.0 E9.0  F1000.0 ; intro line
G1 X100.0 E12.5  F1000.0 ; intro line
G21 ; set units to millimeters
G90 ; use absolute coordinates
M82 ; use absolute distances for extrusion
G92 E0
G1 Z0.400 F7200.000
G1 E-0.80000 F2400.00000
G92 E0
G1 Z0.900 F7200.000
G1 X91.077 Y61.970 F7200.000
G1 Z0.400 F7200.000
G1 E0.80000 F2400.00000
G1 X92.833 Y60.470 E1.07422 F1800.000
G1 X94.993 Y59.655 E1.34845
G1 X96.250 Y59.536 E1.49842
G1 X103.750 Y59.536 E2.38916
G1 X106.025 Y59.933 E2.66338
G1 X108.030 Y61.077 E2.93760 F1800.000
G1 X109.530 Y62.833 E3.21183
G1 X110.345 Y64.993 E3.48605
G1 X110.464 Y66.250 E3.63602
G1 X110.464 Y133.750 E11.65267
G1 X110.067 Y136.025 E11.92690
G1 X108.923 Y138.030 E12.20112
G1 X107.167 Y139.530 E12.47534
G1 X105.007 Y140.345 E12.74957
G1 X103.750 Y140.464 E12.89954
G1 X96.250 Y140.464 E13.79027
G1 X93.975 Y140.067 E14.06450
G1 X91.970 Y138.923 E14.33872
G1 X90.470 Y137.167 E14.61295
G1 X89.655 Y135.007 E14.88717
G1 X89.536 Y133.750 E15.03714
G1 X89.536 Y66.250 E23.05379
G1 X89.933 Y63.975 E23.32801
G1 X91.047 Y62.022 E23.59511
G1 F5760
G1 X92.497 Y60.763 E22.83511
G1 E22.79511 F2400.00000
G92 E0
G1 Z0.900 F7200.000
G1 X102.636 Y132.636 F7200.000
G1 Z0.400 F7200.000
G1 E0.80000 F2400.00000
G1 X97.364 Y132.636 E1.42609 F1800.000
G1 X97.364 Y67.364 E9.17810
G1 X102.636 Y67.364 E9.80419
G1 X102.636 Y132.576 E17.54906
G1 X103.350 Y133.350 F7200.000
G1 X96.650 Y133.350 E18.34479 F1800.000
G1 X96.650 Y66.650 E26.26643
G1 X103.350 Y66.650 E27.06216
G1 X103.350 Y133.290 E34.97667
G1 X103.004 Y133.150 F7200.000
G1 X98.143 Y132.200 F7200.000
G1 X97.800 Y131.857 E35.03465 F1800.000
G1 X97.800 Y130.841 E35.15619
G1 X99.159 Y132.200 E35.38606
G1 X100.176 Y132.200 E35.50760
G1 X97.800 Y129.824 E35.90935
G1 X97.800 Y128.807 E36.03089
G1 X101.193 Y132.200 E36.60453
G1 X102.185 Y132.176 E36.72318
G1 X97.800 Y127.791 E37.46457
G1 X97.800 Y126.774 E37.58611
G1 X102.200 Y131.175 E38.33012
G1 X102.200 Y130.158 E38.45166
G1 X97.800 Y125.757 E39.19567
G1 X97.800 Y124.741 E39.31721
G1 X102.200 Y129.141 E40.06122
G1 X102.200 Y128.125 E40.18276
G1 X97.800 Y123.724 E40.92678
G1 X97.800 Y122.708 E41.04832
G1 X102.200 Y127.108 E41.79233
G1 X102.200 Y126.092 E41.91387
G1 X97.800 Y121.691 E42.65788
G1 X97.800 Y120.674 E42.77942
G1 X102.200 Y125.075 E43.52343
G1 X102.200 Y124.058 E43.64497
G1 X97.800 Y119.658 E44.38899
G1 X97.800 Y118.641 E44.51053
G1 X102.200 Y123.042 E45.25454
G1 X102.200 Y122.025 E45.37608
G1 X97.800 Y117.624 E46.12009
G1 X97.800 Y116.608 E46.24163
G1 X102.200 Y121.008 E46.98565
G1 X102.200 Y119.992 E47.10719
G1 X97.800 Y115.591 E47.85120
G1 X97.800 Y114.574 E47.97274
G1 X102.200 Y118.975 E48.71675
G1 X102.200 Y117.958 E48.83829
G1 X97.800 Y113.558 E49.58230
G1 X97.800 Y112.541 E49.70384
G1 X102.200 Y116.942 E50.44786
G1 X102.200 Y115.925 E50.56940
G1 X97.800 Y111.524 E51.31341
G1 X97.800 Y110.508 E51.43495
G1 X102.200 Y114.908 E52.17896
G1 X102.200 Y113.892 E52.30050
G1 X97.800 Y109.491 E53.04452
G1 X97.800 Y108.474 E53.16606
G1 X102.200 Y112.875 E53.91007
G1 X102.200 Y111.858 E54.03161
G1 X97.800 Y107.458 E54.77562
G1 X97.800 Y106.441 E54.89716
G1 X102.200 Y110.842 E55.64117
G1 X102.200 Y109.825 E55.76271
G1 X97.800 Y105.425 E56.50673
G1 X97.800 Y104.408 E56.62827
G1 X102.200 Y108.809 E57.37228
G1 X102.200 Y107.792 E57.49382
G1 X97.800 Y103.391 E58.23783
G1 X97.800 Y102.375 E58.35937
G1 X102.200 Y106.775 E59.10338
G1 X102.200 Y105.759 E59.22492
G1 X97.800 Y101.358 E59.96894
G1 X97.800 Y100.341 E60.09048
G1 X102.200 Y104.742 E60.83449
G1 X102.200 Y103.725 E60.95603
G1 X97.800 Y99.325 E61.70004
G1 X97.800 Y98.308 E61.82158
G1 X102.200 Y102.709 E62.56560
G1 X102.200 Y101.692 E62.68714
G1 X97.800 Y97.291 E63.43115
G1 X97.800 Y96.275 E63.55269
G1 X102.200 Y100.675 E64.29670
G1 X102.200 Y99.659 E64.41824
G1 X97.800 Y95.258 E65.16225
G1 X97.800 Y94.241 E65.28379
G1 X102.200 Y98.642 E66.02781
G1 X102.200 Y97.625 E66.14935
G1 X97.800 Y93.225 E66.89336
G1 X97.800 Y92.208 E67.01490
G1 X102.200 Y96.609 E67.75891
G1 X102.200 Y95.592 E67.88045
G1 X97.800 Y91.191 E68.62447
G1 X97.800 Y90.175 E68.74601
G1 X102.200 Y94.575 E69.49002
G1 X102.200 Y93.559 E69.61156
G1 X97.800 Y89.158 E70.35557
G1 X97.800 Y88.142 E70.47711
G1 X102.200 Y92.542 E71.22112
G1 X102.200 Y91.526 E71.34266
G1 X97.800 Y87.125 E72.08668
G1 X97.800 Y86.108 E72.20822
G1 X102.200 Y90.509 E72.95223
G1 X102.200 Y89.492 E73.07377
G1 X97.800 Y85.092 E73.81778
G1 X97.800 Y84.075 E73.93932
G1 X102.200 Y88.476 E74.68334
G1 X102.200 Y87.459 E74.80488
G1 X97.800 Y83.058 E75.54889
G1 X97.800 Y82.042 E75.67043
G1 X102.200 Y86.442 E76.41444
G1 X102.200 Y85.426 E76.53598
G1 X97.800 Y81.025 E77.27999
G1 X97.800 Y80.008 E77.40153
G1 X102.200 Y84.409 E78.14555
G1 X102.200 Y83.392 E78.26709
G1 X97.800 Y78.992 E79.01110
G1 X97.800 Y77.975 E79.13264
G1 X102.200 Y82.376 E79.87665
G1 X102.200 Y81.359 E79.99819
G1 X97.800 Y76.958 E80.74221
G1 X97.800 Y75.942 E80.86375
G1 X102.200 Y80.342 E81.60776
G1 X102.200 Y79.326 E81.72930
G1 X97.800 Y74.925 E82.47331
G1 X97.800 Y73.908 E82.59485
G1 X102.200 Y78.309 E83.33886
G1 X102.200 Y77.292 E83.46040
G1 X97.800 Y72.892 E84.20442
G1 X97.800 Y71.875 E84.32596
G1 X102.200 Y76.276 E85.06997
G1 X102.200 Y75.259 E85.19151
G1 X97.800 Y70.859 E85.93552
G1 X97.800 Y69.842 E86.05706
G1 X102.200 Y74.243 E86.80108
G1 X102.200 Y73.226 E86.92262
G1 X97.800 Y68.825 E87.66663
G1 X97.815 Y67.824 E87.78633
G1 X102.200 Y72.209 E88.52771
G1 X102.200 Y71.193 E88.64925
G1 X98.807 Y67.800 E89.22289
G1 X99.824 Y67.800 E89.34443
G1 X102.200 Y70.176 E89.74619
G1 X102.200 Y69.159 E89.86773
G1 X100.841 Y67.800 E90.09760
G1 X101.857 Y67.800 E90.21914
G1 X102.200 Y68.143 E90.27713
M104 S210 ; set temperature
G1 Z0.750 F7200.000
G1 X103.208 Y133.208 F7200.000
G1 X96.792 Y133.208 E90.61234 F2400.000
G1 X96.792 Y66.792 E94.08224
G1 X103.208 Y66.792 E94.41745
G1 X103.208 Y133.148 E97.88421
G1 X103.550 Y133.550 F7200.000
G1 X96.450 Y133.550 E98.21987 F1200.000
G1 X96.450 Y66.450 E101.39207
G1 X103.550 Y66.450 E101.72772
G1 X103.550 Y133.490 E104.89708
G1 X103.204 Y133.350 F7200.000
G1 X102.807 Y132.999 F7200.000
G1 X102.999 Y132.807 E104.91130 F1200.000
G1 X102.999 Y132.299 E104.93784
G1 X102.299 Y132.999 E104.98959
G1 X101.791 Y132.999 E105.01613
G1 X102.999 Y131.791 E105.10541
G1 X102.999 Y131.283 E105.13195
G1 X101.283 Y132.999 E105.25877
G1 X100.775 Y132.999 E105.28531
G1 X102.999 Y130.775 E105.44966
G1 X102.999 Y130.267 E105.47620
G1 X100.267 Y132.999 E105.67808
G1 X99.759 Y132.999 E105.70463
G1 X102.999 Y129.759 E105.94405
G1 X102.999 Y129.252 E105.97059
G1 X99.252 Y132.999 E106.24754
G1 X98.744 Y132.999 E106.27408
G1 X102.999 Y128.744 E106.58857
G1 X102.999 Y128.236 E106.61511
G1 X98.236 Y132.999 E106.96714
G1 X97.728 Y132.999 E106.99368
G1 X102.999 Y127.728 E107.38323
G1 X102.999 Y127.220 E107.40977
G1 X97.220 Y132.999 E107.83687
G1 X97.001 Y132.710 E107.85581
G1 X102.999 Y126.712 E108.29909
G1 X102.999 Y126.204 E108.32563
G1 X97.001 Y132.202 E108.76891
G1 X97.001 Y131.694 E108.79545
G1 X102.999 Y125.696 E109.23873
G1 X102.999 Y125.188 E109.26527
G1 X97.001 Y131.187 E109.70855
G1 X97.001 Y130.679 E109.73509
G1 X102.999 Y124.681 E110.17837
G1 X102.999 Y124.173 E110.20491
G1 X97.001 Y130.171 E110.64819
G1 X97.001 Y129.663 E110.67473
G1 X102.999 Y123.665 E111.11801
G1 X102.999 Y123.157 E111.14455
G1 X97.001 Y129.155 E111.58783
G1 X97.001 Y128.647 E111.61437
G1 X102.999 Y122.649 E112.05765
G1 X102.999 Y122.141 E112.08419
G1 X97.001 Y128.139 E112.52747
G1 X97.001 Y127.631 E112.55401
G1 X102.999 Y121.633 E112.99729
G1 X102.999 Y121.125 E113.02383
G1 X97.001 Y127.123 E113.46711
G1 X97.001 Y126.616 E113.49365
G1 X102.999 Y120.618 E113.93693
G1 X102.999 Y120.110 E113.96347
G1 X97.001 Y126.108 E114.40675
G1 X97.001 Y125.600 E114.43330
G1 X102.999 Y119.602 E114.87657
G1 X102.999 Y119.094 E114.90312
G1 X97.001 Y125.092 E115.34640
G1 X97.001 Y124.584 E115.37294
G1 X102.999 Y118.586 E115.81622
G1 X102.999 Y118.078 E115.84276
G1 X97.001 Y124.076 E116.28604
G1 X97.001 Y123.568 E116.31258
G1 X102.999 Y117.570 E116.75586
G1 X102.999 Y117.062 E116.78240
G1 X97.001 Y123.060 E117.22568
G1 X97.001 Y122.553 E117.25222
G1 X102.999 Y116.554 E117.69550
G1 X102.999 Y116.047 E117.72204
G1 X97.001 Y122.045 E118.16532
G1 X97.001 Y121.537 E118.19186
G1 X102.999 Y115.539 E118.63514
G1 X102.999 Y115.031 E118.66168
G1 X97.001 Y121.029 E119.10496
G1 X97.001 Y120.521 E119.13150
G1 X102.999 Y114.523 E119.57478
G1 X102.999 Y114.015 E119.60132
G1 X97.001 Y120.013 E120.04460
G1 X97.001 Y119.505 E120.07114
G1 X102.999 Y113.507 E120.51442
G1 X102.999 Y112.999 E120.54096
G1 X97.001 Y118.997 E120.98424
G1 X97.001 Y118.489 E121.01078
G1 X102.999 Y112.491 E121.45406
G1 X102.999 Y111.983 E121.48060
G1 X97.001 Y117.982 E121.92388
G1 X97.001 Y117.474 E121.95042
G1 X102.999 Y111.476 E122.39370
G1 X102.999 Y110.968 E122.42024
G1 X97.001 Y116.966 E122.86352
G1 X97.001 Y116.458 E122.89006
G1 X102.999 Y110.460 E123.33334
G1 X102.999 Y109.952 E123.35988
G1 X97.001 Y115.950 E123.80316
G1 X97.001 Y115.442 E123.82970
G1 X102.999 Y109.444 E124.27298
G1 X102.999 Y108.936 E124.29952
G1 X97.001 Y114.934 E124.74280
G1 X97.001 Y114.426 E124.76934
G1 X102.999 Y108.428 E125.21262
G1 X102.999 Y107.920 E125.23916
G1 X97.001 Y113.919 E125.68244
G1 X97.001 Y113.411 E125.70898
G1 X102.999 Y107.413 E126.15226
G1 X102.999 Y106.905 E126.17880
G1 X97.001 Y112.903 E126.62208
G1 X97.001 Y112.395 E126.64862
G1 X102.999 Y106.397 E127.09190
G1 X102.999 Y105.889 E127.11844
G1 X97.001 Y111.887 E127.56172
G1 X97.001 Y111.379 E127.58826
G1 X102.999 Y105.381 E128.03154
G1 X102.999 Y104.873 E128.05808
G1 X97.001 Y110.871 E128.50136
G1 X97.001 Y110.363 E128.52791
G1 X102.999 Y104.365 E128.97118
G1 X102.999 Y103.857 E128.99773
G1 X97.001 Y109.855 E129.44100
G1 X97.001 Y109.348 E129.46755
G1 X102.999 Y103.349 E129.91083
G1 X102.999 Y102.842 E129.93737
G1 X97.001 Y108.840 E130.38065
G1 X97.001 Y108.332 E130.40719
G1 X102.999 Y102.334 E130.85047
G1 X102.999 Y101.826 E130.87701
G1 X97.001 Y107.824 E131.32029
G1 X97.001 Y107.316 E131.34683
G1 X102.999 Y101.318 E131.79011
G1 X102.999 Y100.810 E131.81665
G1 X97.001 Y106.808 E132.25993
G1 X97.001 Y106.300 E132.28647
G1 X102.999 Y100.302 E132.72975
G1 X102.999 Y99.794 E132.75629
G1 X97.001 Y105.792 E133.19957
G1 X97.001 Y105.284 E133.22611
G1 X102.999 Y99.286 E133.66939
G1 X102.999 Y98.779 E133.69593
G1 X97.001 Y104.777 E134.13921
G1 X97.001 Y104.269 E134.16575
G1 X102.999 Y98.271 E134.60903
G1 X102.999 Y97.763 E134.63557
G1 X97.001 Y103.761 E135.07885
G1 X97.001 Y103.253 E135.10539
G1 X102.999 Y97.255 E135.54867
G1 X102.999 Y96.747 E135.57521
G1 X97.001 Y102.745 E136.01849
G1 X97.001 Y102.237 E136.04503
G1 X102.999 Y96.239 E136.48831
G1 X102.999 Y95.731 E136.51485
G1 X97.001 Y101.729 E136.95813
G1 X97.001 Y101.221 E136.98467
G1 X102.999 Y95.223 E137.42795
G1 X102.999 Y94.715 E137.45449
G1 X97.001 Y100.714 E137.89777
G1 X97.001 Y100.206 E137.92431
G1 X102.999 Y94.208 E138.36759
G1 X102.999 Y93.700 E138.39413
G1 X97.001 Y99.698 E138.83741
G1 X97.001 Y99.190 E138.86395
G1 X102.999 Y93.192 E139.30723
G1 X102.999 Y92.684 E139.33377
G1 X97.001 Y98.682 E139.77705
G1 X97.001 Y98.174 E139.80359
G1 X102.999 Y92.176 E140.24687
G1 X102.999 Y91.668 E140.27341
G1 X97.001 Y97.666 E140.71669
G1 X97.001 Y97.158 E140.74323
G1 X102.999 Y91.160 E141.18651
G1 X102.999 Y90.652 E141.21305
G1 X97.001 Y96.650 E141.65633
G1 X97.001 Y96.143 E141.68287
G1 X102.999 Y90.145 E142.12615
G1 X102.999 Y89.637 E142.15269
G1 X97.001 Y95.635 E142.59597
G1 X97.001 Y95.127 E142.62251
G1 X102.999 Y89.129 E143.06579
G1 X102.999 Y88.621 E143.09233
G1 X97.001 Y94.619 E143.53561
G1 X97.001 Y94.111 E143.56215
G1 X102.999 Y88.113 E144.00543
G1 X102.999 Y87.605 E144.03198
G1 X97.001 Y93.603 E144.47525
G1 X97.001 Y93.095 E144.50180
G1 X102.999 Y87.097 E144.94507
G1 X102.999 Y86.589 E144.97162
G1 X97.001 Y92.587 E145.41490
G1 X97.001 Y92.080 E145.44144
G1 X102.999 Y86.081 E145.88472
G1 X102.999 Y85.574 E145.91126
G1 X97.001 Y91.572 E146.35454
G1 X97.001 Y91.064 E146.38108
G1 X102.999 Y85.066 E146.82436
G1 X102.999 Y84.558 E146.85090
G1 X97.001 Y90.556 E147.29418
G1 X97.001 Y90.048 E147.32072
G1 X102.999 Y84.050 E147.76400
G1 X102.999 Y83.542 E147.79054
G1 X97.001 Y89.540 E148.23382
G1 X97.001 Y89.032 E148.26036
G1 X102.999 Y83.034 E148.70364
G1 X102.999 Y82.526 E148.73018
G1 X97.001 Y88.524 E149.17346
G1 X97.001 Y88.016 E149.20000
G1 X102.999 Y82.018 E149.64328
G1 X102.999 Y81.511 E149.66982
G1 X97.001 Y87.509 E150.11310
G1 X97.001 Y87.001 E150.13964
G1 X102.999 Y81.003 E150.58292
G1 X102.999 Y80.495 E150.60946
G1 X97.001 Y86.493 E151.05274
G1 X97.001 Y85.985 E151.07928
G1 X102.999 Y79.987 E151.52256
G1 X102.999 Y79.479 E151.54910
G1 X97.001 Y85.477 E151.99238
G1 X97.001 Y84.969 E152.01892
G1 X102.999 Y78.971 E152.46220
G1 X102.999 Y78.463 E152.48874
G1 X97.001 Y84.461 E152.93202
G1 X97.001 Y83.953 E152.95856
G1 X102.999 Y77.955 E153.40184
G1 X102.999 Y77.447 E153.42838
G1 X97.001 Y83.446 E153.87166
G1 X97.001 Y82.938 E153.89820
G1 X102.999 Y76.940 E154.34148
G1 X102.999 Y76.432 E154.36802
G1 X97.001 Y82.430 E154.81130
G1 X97.001 Y81.922 E154.83784
G1 X102.999 Y75.924 E155.28112
G1 X102.999 Y75.416 E155.30766
G1 X97.001 Y81.414 E155.75094
G1 X97.001 Y80.906 E155.77748
G1 X102.999 Y74.908 E156.22076
G1 X102.999 Y74.400 E156.24730
G1 X97.001 Y80.398 E156.69058
G1 X97.001 Y79.890 E156.71712
G1 X102.999 Y73.892 E157.16040
G1 X102.999 Y73.384 E157.18694
G1 X97.001 Y79.382 E157.63022
G1 X97.001 Y78.875 E157.65676
G1 X102.999 Y72.876 E158.10004
G1 X102.999 Y72.369 E158.12658
G1 X97.001 Y78.367 E158.56986
G1 X97.001 Y77.859 E158.59640
G1 X102.999 Y71.861 E159.03968
G1 X102.999 Y71.353 E159.06622
G1 X97.001 Y77.351 E159.50950
G1 X97.001 Y76.843 E159.53604
G1 X102.999 Y70.845 E159.97932
G1 X102.999 Y70.337 E160.00587
G1 X97.001 Y76.335 E160.44914
G1 X97.001 Y75.827 E160.47569
G1 X102.999 Y69.829 E160.91896
G1 X102.999 Y69.321 E160.94551
G1 X97.001 Y75.319 E161.38879
G1 X97.001 Y74.812 E161.41533
G1 X102.999 Y68.813 E161.85861
G1 X102.999 Y68.306 E161.88515
G1 X97.001 Y74.304 E162.32843
G1 X97.001 Y73.796 E162.35497
G1 X102.999 Y67.798 E162.79825
G1 X102.999 Y67.290 E162.82479
G1 X97.001 Y73.288 E163.26807
G1 X97.001 Y72.780 E163.29461
G1 X102.780 Y67.001 E163.72170
G1 X102.272 Y67.001 E163.74824
G1 X97.001 Y72.272 E164.13779
G1 X97.001 Y71.764 E164.16433
G1 X101.764 Y67.001 E164.51635
G1 X101.256 Y67.001 E164.54290
G1 X97.001 Y71.256 E164.85738
G1 X97.001 Y70.748 E164.88392
G1 X100.748 Y67.001 E165.16087
G1 X100.241 Y67.001 E165.18742
G1 X97.001 Y70.241 E165.42683
G1 X97.001 Y69.733 E165.45337
G1 X99.733 Y67.001 E165.65526
G1 X99.225 Y67.001 E165.68180
G1 X97.001 Y69.225 E165.84615
G1 X97.001 Y68.717 E165.87269
G1 X98.717 Y67.001 E165.99950
G1 X98.209 Y67.001 E166.02604
G1 X97.001 Y68.209 E166.11532
G1 X97.001 Y67.701 E166.14186
G1 X97.701 Y67.001 E166.19361
G1 X97.193 Y67.001 E166.22015
G1 X97.001 Y67.193 E166.23436
G1 Z1.100 F7200.000
G1 X103.208 Y133.208 F7200.000
G1 X96.792 Y133.208 E166.56957 F2400.000
G1 X96.792 Y66.792 E170.03947
G1 X103.208 Y66.792 E170.37468
G1 X103.208 Y133.148 E173.84144
G1 X103.550 Y133.550 F7200.000
G1 X96.450 Y133.550 E174.17710 F1200.000
G1 X96.450 Y66.450 E177.34930
G1 X103.550 Y66.450 E177.68495
G1 X103.550 Y133.490 E180.85431
G1 X103.204 Y133.350 F7200.000
G1 X97.193 Y132.999 F7200.000
G1 X97.001 Y132.807 E180.86852 F1200.000
G1 X97.001 Y132.299 E180.89506
G1 X97.701 Y132.999 E180.94681
G1 X98.209 Y132.999 E180.97335
G1 X97.001 Y131.791 E181.06263
